fun-test/static/cube/canvas_filter_lut.cube
# Created by JavaScript LUT generator (Canvas filter compatible)
# Input parameters: {"blur":10,"opacity":1,"brightness":1.18,"contrast":1.8,"grayscale":0.05,"hue-rotate":2.45,"invert":0.01,"saturate":10,"sepia":0.48}
TITLE "Canvas Filter LUT"
LUT_3D_SIZE 8
DOMAIN_MIN 0.000000 0.000000 0.000000
DOMAIN_MAX 0.903226 0.903226 0.903226
0.000000 0.000000 0.000000
0.775049 0.000000 0.000000
1.000000 0.000000 0.000000
1.000000 0.000000 0.000000
1.000000 0.000000 0.000000
1.000000 0.000000 0.000000
1.000000 0.000000 0.000000
1.000000 0.000000 0.000000
0.000000 0.000000 0.000000
0.000000 0.000000 0.000000
0.988986 0.000000 0.000000
1.000000 0.000000 0.000000
1.000000 0.000000 0.000000
1.000000 0.000000 0.000000
1.000000 0.000000 0.000000
1.000000 0.000000 0.000000
0.000000 0.343127 0.000000
0.000000 0.240479 0.000000
0.000000 0.137832 0.000000
1.000000 0.035184 0.000000
1.000000 0.000000 0.000000
1.000000 0.000000 0.000000
1.000000 0.000000 0.000000
1.000000 0.000000 0.000000
0.000000 0.724302 0.000000
0.000000 0.621654 0.000000
0.000000 0.519006 0.000000
0.195452 0.416358 0.000000
1.000000 0.313710 0.000000
1.000000 0.211063 0.000000
1.000000 0.108415 0.000000
1.000000 0.005767 0.000000
0.000000 1.000000 0.000000
0.000000 1.000000 0.000000
0.000000 0.900181 0.000000
0.000000 0.797533 0.000000
0.409389 0.694885 0.000000
1.000000 0.592237 0.000000
1.000000 0.489589 0.000000
1.000000 0.386941 0.000000
0.000000 1.000000 0.000000
0.000000 1.000000 0.000000
0.000000 1.000000 0.000000
0.000000 1.000000 0.000000
0.000000 1.000000 0.000000
0.623326 0.973412 0.000000
1.000000 0.870764 0.000000
1.000000 0.768116 0.000000
0.000000 1.000000 0.000000
0.000000 1.000000 0.000000
0.000000 1.000000 0.000000
0.000000 1.000000 0.000000
0.000000 1.000000 0.000000
0.000000 1.000000 0.000000
0.837263 1.000000 0.000000
1.000000 1.000000 0.000000
0.000000 1.000000 0.000000
0.000000 1.000000 0.000000
0.000000 1.000000 0.000000
0.000000 1.000000 0.000000
0.000000 1.000000 0.000000
0.000000 1.000000 0.000000
0.000000 1.000000 0.000000
1.000000 1.000000 0.000000
0.000000 0.000000 0.965625
0.874946 0.000000 0.779165
1.000000 0.000000 0.592705
1.000000 0.000000 0.406246
1.000000 0.000000 0.219786
1.000000 0.000000 0.033327
1.000000 0.000000 0.000000
1.000000 0.000000 0.000000
0.000000 0.000000 0.076473
0.000000 0.000000 0.000000
1.000000 0.000000 0.000000
1.000000 0.000000 0.000000
1.000000 0.000000 0.000000
1.000000 0.000000 0.000000
1.000000 0.000000 0.000000
1.000000 0.000000 0.000000
0.000000 0.359355 0.000000
0.000000 0.256707 0.000000
0.081412 0.154059 0.000000
1.000000 0.051411 0.000000
1.000000 0.000000 0.000000
1.000000 0.000000 0.000000
1.000000 0.000000 0.000000
1.000000 0.000000 0.000000
0.000000 0.740529 0.000000
0.000000 0.637881 0.000000
0.000000 0.535233 0.000000
0.295349 0.432586 0.000000
1.000000 0.329938 0.000000
1.000000 0.227290 0.000000
1.000000 0.124642 0.000000
1.000000 0.000000 0.000000
0.000000 1.000000 0.000000
0.000000 1.000000 0.000000
0.000000 0.916408 0.000000
0.000000 0.813760 0.000000
0.509286 0.711112 0.000000
1.000000 0.608464 0.000000
1.000000 0.505817 0.000000
1.000000 0.403169 0.000000
0.000000 1.000000 0.000000
0.000000 1.000000 0.000000
0.000000 1.000000 0.000000
0.000000 1.000000 0.000000
0.000000 1.000000 0.000000
0.723223 0.989639 0.000000
1.000000 0.886991 0.000000
1.000000 0.784343 0.000000
0.000000 1.000000 0.000000
0.000000 1.000000 0.000000
0.000000 1.000000 0.000000
0.000000 1.000000 0.000000
0.000000 1.000000 0.000000
0.000000 1.000000 0.000000
0.937160 1.000000 0.000000
1.000000 1.000000 0.000000
0.000000 1.000000 0.000000
0.000000 1.000000 0.000000
0.000000 1.000000 0.000000
0.000000 1.000000 0.000000
0.000000 1.000000 0.000000
0.000000 1.000000 0.000000
0.000000 1.000000 0.000000
1.000000 1.000000 0.000000
0.000000 0.000000 1.000000
0.974843 0.000000 1.000000
1.000000 0.000000 1.000000
1.000000 0.000000 1.000000
1.000000 0.000000 1.000000
1.000000 0.000000 1.000000
1.000000 0.000000 0.988810
1.000000 0.000000 0.692037
0.000000 0.000000 1.000000
0.000000 0.000000 1.000000
1.000000 0.000000 1.000000
1.000000 0.000000 0.853167
1.000000 0.000000 0.666707
1.000000 0.000000 0.477975
1.000000 0.000000 0.181203
1.000000 0.000000 0.000000
0.000000 0.375582 0.523393
0.000000 0.272934 0.336934
0.181309 0.170286 0.150474
1.000000 0.067638 0.000000
1.000000 0.000000 0.000000
1.000000 0.000000 0.000000
1.000000 0.000000 0.000000
1.000000 0.000000 0.000000
0.000000 0.756756 0.000000
0.000000 0.654109 0.000000
0.000000 0.551461 0.000000
0.395246 0.448813 0.000000
1.000000 0.346165 0.000000
1.000000 0.243517 0.000000
1.000000 0.069952 0.000000
1.000000 0.000000 0.000000
0.000000 1.000000 0.000000
0.000000 1.000000 0.000000
0.000000 0.932635 0.000000
0.000000 0.829987 0.000000
0.609183 0.727340 0.000000
1.000000 0.624692 0.000000
1.000000 0.522044 0.000000
1.000000 0.311295 0.000000
0.000000 1.000000 0.000000
0.000000 1.000000 0.000000
0.000000 1.000000 0.000000
0.000000 1.000000 0.000000
0.000000 1.000000 0.000000
0.823120 1.000000 0.000000
1.000000 0.903218 0.000000
1.000000 0.796663 0.000000
0.000000 1.000000 0.000000
0.000000 1.000000 0.000000
0.000000 1.000000 0.000000
0.000000 1.000000 0.000000
0.000000 1.000000 0.000000
0.000000 1.000000 0.000000
1.000000 1.000000 0.000000
1.000000 1.000000 0.000000
0.000000 1.000000 0.000000
0.000000 1.000000 0.000000
0.000000 1.000000 0.000000
0.000000 1.000000 0.000000
0.000000 1.000000 0.000000
0.000000 1.000000 0.000000
0.029586 1.000000 0.000000
1.000000 1.000000 0.000000
0.000000 0.000000 1.000000
1.000000 0.000000 1.000000
1.000000 0.000000 1.000000
1.000000 0.000000 1.000000
1.000000 0.000000 1.000000
1.000000 0.000000 1.000000
1.000000 0.000000 1.000000
1.000000 0.000000 1.000000
0.000000 0.010634 1.000000
0.067269 0.000000 1.000000
1.000000 0.000000 1.000000
1.000000 0.000000 1.000000
1.000000 0.000000 1.000000
1.000000 0.000000 1.000000
1.000000 0.000000 1.000000
1.000000 0.000000 1.000000
0.000000 0.391809 1.000000
0.000000 0.289161 1.000000
0.281206 0.186513 1.000000
1.000000 0.083865 1.000000
1.000000 0.000000 1.000000
1.000000 0.000000 0.914412
1.000000 0.000000 0.617639
1.000000 0.000000 0.320866
0.000000 0.772984 0.970314
0.000000 0.670336 0.783855
0.000000 0.567688 0.597395
0.495143 0.465040 0.410935
1.000000 0.362392 0.224476
1.000000 0.212299 0.038016
1.000000 0.000000 0.000000
1.000000 0.000000 0.000000
0.000000 1.000000 0.081162
0.000000 1.000000 0.000000
0.000000 0.948863 0.000000
0.000000 0.846215 0.000000
0.709080 0.743567 0.000000
1.000000 0.640919 0.000000
1.000000 0.453641 0.000000
1.000000 0.209616 0.000000
0.000000 1.000000 0.000000
0.000000 1.000000 0.000000
0.000000 1.000000 0.000000
0.000000 1.000000 0.000000
0.000000 1.000000 0.000000
0.923017 1.000000 0.000000
1.000000 0.919446 0.000000
1.000000 0.694984 0.000000
0.000000 1.000000 0.000000
0.000000 1.000000 0.000000
0.000000 1.000000 0.000000
0.000000 1.000000 0.000000
0.000000 1.000000 0.000000
0.000000 1.000000 0.000000
1.000000 1.000000 0.000000
1.000000 1.000000 0.000000
0.000000 1.000000 0.000000
0.000000 1.000000 0.000000
0.000000 1.000000 0.000000
0.000000 1.000000 0.000000
0.000000 1.000000 0.000000
0.000000 1.000000 0.000000
0.129483 1.000000 0.000000
1.000000 1.000000 0.000000
0.000000 0.000000 1.000000
1.000000 0.000000 1.000000
1.000000 0.000000 1.000000
1.000000 0.000000 1.000000
1.000000 0.000000 1.000000
1.000000 0.000000 1.000000
1.000000 0.000000 1.000000
1.000000 0.000000 1.000000
0.000000 0.026861 1.000000
0.167166 0.000000 1.000000
1.000000 0.000000 1.000000
1.000000 0.000000 1.000000
1.000000 0.000000 1.000000
1.000000 0.000000 1.000000
1.000000 0.000000 1.000000
1.000000 0.000000 1.000000
0.000000 0.408036 1.000000
0.000000 0.305388 1.000000
0.381103 0.202740 1.000000
1.000000 0.100092 1.000000
1.000000 0.000000 1.000000
1.000000 0.000000 1.000000
1.000000 0.000000 1.000000
1.000000 0.000000 1.000000
0.000000 0.789211 1.000000
0.000000 0.686563 1.000000
0.000000 0.583915 1.000000
0.595040 0.481267 1.000000
1.000000 0.354645 1.000000
1.000000 0.110619 1.000000
1.000000 0.000000 1.000000
1.000000 0.000000 0.757302
0.000000 1.000000 1.000000
0.000000 1.000000 1.000000
0.000000 0.965090 1.000000
0.000000 0.862442 0.857856
0.808977 0.759794 0.671397
1.000000 0.595987 0.484937
1.000000 0.351962 0.246467
1.000000 0.107936 0.000000
0.000000 1.000000 0.528083
0.000000 1.000000 0.341623
0.000000 1.000000 0.155164
0.000000 1.000000 0.000000
0.000000 1.000000 0.000000
1.000000 1.000000 0.000000
1.000000 0.837330 0.000000
1.000000 0.593305 0.000000
0.000000 1.000000 0.000000
0.000000 1.000000 0.000000
0.000000 1.000000 0.000000
0.000000 1.000000 0.000000
0.000000 1.000000 0.000000
0.015443 1.000000 0.000000
1.000000 1.000000 0.000000
1.000000 1.000000 0.000000
0.000000 1.000000 0.000000
0.000000 1.000000 0.000000
0.000000 1.000000 0.000000
0.000000 1.000000 0.000000
0.000000 1.000000 0.000000
0.000000 1.000000 0.000000
0.229380 1.000000 0.000000
1.000000 1.000000 0.000000
0.053126 0.000000 1.000000
1.000000 0.000000 1.000000
1.000000 0.000000 1.000000
1.000000 0.000000 1.000000
1.000000 0.000000 1.000000
1.000000 0.000000 1.000000
1.000000 0.000000 1.000000
1.000000 0.000000 1.000000
0.000000 0.043088 1.000000
0.267063 0.000000 1.000000
1.000000 0.000000 1.000000
1.000000 0.000000 1.000000
1.000000 0.000000 1.000000
1.000000 0.000000 1.000000
1.000000 0.000000 1.000000
1.000000 0.000000 1.000000
0.000000 0.424263 1.000000
0.000000 0.321615 1.000000
0.461703 0.218967 1.000000
1.000000 0.011623 1.000000
1.000000 0.000000 1.000000
1.000000 0.000000 1.000000
1.000000 0.000000 1.000000
1.000000 0.000000 1.000000
0.000000 0.805438 1.000000
0.000000 0.702790 1.000000
0.000000 0.600142 1.000000
0.634361 0.496991 1.000000
1.000000 0.252965 1.000000
1.000000 0.008940 1.000000
1.000000 0.000000 1.000000
1.000000 0.000000 1.000000
0.000000 1.000000 1.000000
0.000000 1.000000 1.000000
0.000000 0.981317 1.000000
0.000000 0.878669 1.000000
0.807019 0.738334 1.000000
1.000000 0.494308 1.000000
1.000000 0.250282 1.000000
1.000000 0.006257 1.000000
0.000000 1.000000 1.000000
0.000000 1.000000 1.000000
0.000000 1.000000 1.000000
0.000000 1.000000 1.000000
0.000000 1.000000 1.000000
0.979676 0.979676 0.931858
1.000000 0.735651 0.682904
1.000000 0.491625 0.386131
0.000000 1.000000 0.975004
0.000000 1.000000 0.788544
0.000000 1.000000 0.602085
0.000000 1.000000 0.415625
0.000000 1.000000 0.229166
0.090963 1.000000 0.042706
1.000000 1.000000 0.000000
1.000000 0.976993 0.000000
0.000000 1.000000 0.085852
0.000000 1.000000 0.000000
0.000000 1.000000 0.000000
0.000000 1.000000 0.000000
0.000000 1.000000 0.000000
0.000000 1.000000 0.000000
0.263621 1.000000 0.000000
1.000000 1.000000 0.000000
0.083393 0.000000 1.000000
1.000000 0.000000 1.000000
1.000000 0.000000 1.000000
1.000000 0.000000 1.000000
1.000000 0.000000 1.000000
1.000000 0.000000 1.000000
1.000000 0.000000 1.000000
1.000000 0.000000 1.000000
0.000000 0.059316 1.000000
0.256050 0.000000 1.000000
1.000000 0.000000 1.000000
1.000000 0.000000 1.000000
1.000000 0.000000 1.000000
1.000000 0.000000 1.000000
1.000000 0.000000 1.000000
1.000000 0.000000 1.000000
0.000000 0.440490 1.000000
0.000000 0.337842 1.000000
0.428708 0.153969 1.000000
1.000000 0.000000 1.000000
1.000000 0.000000 1.000000
1.000000 0.000000 1.000000
1.000000 0.000000 1.000000
1.000000 0.000000 1.000000
0.000000 0.821665 1.000000
0.000000 0.719017 1.000000
0.000000 0.616369 1.000000
0.601366 0.395312 1.000000
1.000000 0.151286 1.000000
1.000000 0.000000 1.000000
1.000000 0.000000 1.000000
1.000000 0.000000 1.000000
0.000000 1.000000 1.000000
0.000000 1.000000 1.000000
0.000000 0.997544 1.000000
0.000000 0.880680 1.000000
0.774024 0.636654 1.000000
1.000000 0.392629 1.000000
1.000000 0.148603 1.000000
1.000000 0.000000 1.000000
0.000000 1.000000 1.000000
0.000000 1.000000 1.000000
0.000000 1.000000 1.000000
0.000000 1.000000 1.000000
0.000000 1.000000 1.000000
0.946682 0.877997 1.000000
1.000000 0.633971 1.000000
1.000000 0.389946 1.000000
0.000000 1.000000 1.000000
0.000000 1.000000 1.000000
0.000000 1.000000 1.000000
0.000000 1.000000 1.000000
0.000000 1.000000 1.000000
0.057968 1.000000 1.000000
1.000000 1.000000 1.000000
1.000000 0.875314 0.822567
0.000000 1.000000 1.000000
0.000000 1.000000 1.000000
0.000000 1.000000 1.000000
0.000000 1.000000 0.862546
0.000000 1.000000 0.676086
0.000000 1.000000 0.489627
0.230626 1.000000 0.303167
1.000000 1.000000 0.014959
0.050398 0.000000 1.000000
1.000000 0.000000 1.000000
1.000000 0.000000 1.000000
1.000000 0.000000 1.000000
1.000000 0.000000 1.000000
1.000000 0.000000 1.000000
1.000000 0.000000 1.000000
1.000000 0.000000 1.000000
0.000000 0.054972 1.000000
0.223056 0.000000 1.000000
1.000000 0.000000 1.000000
1.000000 0.000000 1.000000
1.000000 0.000000 1.000000
1.000000 0.000000 1.000000
1.000000 0.000000 1.000000
1.000000 0.000000 1.000000
0.000000 0.456717 1.000000
0.000000 0.296315 1.000000
0.395714 0.052289 1.000000
1.000000 0.000000 1.000000
1.000000 0.000000 1.000000
1.000000 0.000000 1.000000
1.000000 0.000000 1.000000
1.000000 0.000000 1.000000
0.000000 0.837892 1.000000
0.000000 0.735244 1.000000
0.000000 0.537658 1.000000
0.568372 0.293632 1.000000
1.000000 0.049606 1.000000
1.000000 0.000000 1.000000
1.000000 0.000000 1.000000
1.000000 0.000000 1.000000
0.000000 1.000000 1.000000
0.000000 1.000000 1.000000
0.000000 1.000000 1.000000
0.000000 0.779000 1.000000
0.741029 0.534975 1.000000
1.000000 0.290949 1.000000
1.000000 0.046924 1.000000
1.000000 0.000000 1.000000
0.000000 1.000000 1.000000
0.000000 1.000000 1.000000
0.000000 1.000000 1.000000
0.000000 1.000000 1.000000
0.000000 1.000000 1.000000
0.913687 0.776318 1.000000
1.000000 0.532292 1.000000
1.000000 0.288266 1.000000
0.000000 1.000000 1.000000
0.000000 1.000000 1.000000
0.000000 1.000000 1.000000
0.000000 1.000000 1.000000
0.000000 1.000000 1.000000
0.024974 1.000000 1.000000
1.000000 1.000000 1.000000
1.000000 0.773635 1.000000
0.000000 1.000000 1.000000
0.000000 1.000000 1.000000
0.000000 1.000000 1.000000
0.000000 1.000000 1.000000
0.000000 1.000000 1.000000
0.000000 1.000000 1.000000
0.197632 1.000000 1.000000
1.000000 1.000000 1.000000
