fun-test/static/cube/canvas_filter_lut.cube
# Created by JavaScript LUT generator (Canvas filter compatible)
# Input parameters: {"blur":10,"opacity":1,"brightness":1.18,"contrast":1.8,"grayscale":0.05,"hue-rotate":2.45,"invert":0.01,"saturate":10,"sepia":0.48}
TITLE "Canvas Filter LUT"
LUT_3D_SIZE 32
0.000000 0.000000 0.000000
0.000000 0.000000 0.000000
0.164345 0.000000 0.000000
0.469697 0.000000 0.000000
0.775049 0.000000 0.000000
1.000000 0.000000 0.000000
1.000000 0.000000 0.000000
1.000000 0.000000 0.000000
1.000000 0.000000 0.000000
1.000000 0.000000 0.000000
1.000000 0.000000 0.000000
1.000000 0.000000 0.000000
1.000000 0.000000 0.000000
1.000000 0.000000 0.000000
1.000000 0.000000 0.000000
1.000000 0.000000 0.000000
1.000000 0.000000 0.000000
1.000000 0.000000 0.000000
1.000000 0.000000 0.000000
1.000000 0.000000 0.000000
1.000000 0.000000 0.000000
1.000000 0.000000 0.000000
1.000000 0.000000 0.000000
1.000000 0.000000 0.000000
1.000000 0.000000 0.000000
1.000000 0.000000 0.000000
1.000000 0.000000 0.000000
1.000000 0.000000 0.000000
1.000000 0.000000 0.000000
1.000000 0.000000 0.000000
1.000000 0.000000 0.000000
1.000000 0.000000 0.000000
0.000000 0.000000 0.000000
0.000000 0.000000 0.000000
0.000000 0.000000 0.000000
0.217829 0.000000 0.000000
0.523181 0.000000 0.000000
0.828533 0.000000 0.000000
1.000000 0.000000 0.000000
1.000000 0.000000 0.000000
1.000000 0.000000 0.000000
1.000000 0.000000 0.000000
1.000000 0.000000 0.000000
1.000000 0.000000 0.000000
1.000000 0.000000 0.000000
1.000000 0.000000 0.000000
1.000000 0.000000 0.000000
1.000000 0.000000 0.000000
1.000000 0.000000 0.000000
1.000000 0.000000 0.000000
1.000000 0.000000 0.000000
1.000000 0.000000 0.000000
1.000000 0.000000 0.000000
1.000000 0.000000 0.000000
1.000000 0.000000 0.000000
1.000000 0.000000 0.000000
1.000000 0.000000 0.000000
1.000000 0.000000 0.000000
1.000000 0.000000 0.000000
1.000000 0.000000 0.000000
1.000000 0.000000 0.000000
1.000000 0.000000 0.000000
1.000000 0.000000 0.000000
1.000000 0.000000 0.000000
0.000000 0.000000 0.000000
0.000000 0.000000 0.000000
0.000000 0.000000 0.000000
0.000000 0.000000 0.000000
0.271313 0.000000 0.000000
0.576665 0.000000 0.000000
0.882017 0.000000 0.000000
1.000000 0.000000 0.000000
1.000000 0.000000 0.000000
1.000000 0.000000 0.000000
1.000000 0.000000 0.000000
1.000000 0.000000 0.000000
1.000000 0.000000 0.000000
1.000000 0.000000 0.000000
1.000000 0.000000 0.000000
1.000000 0.000000 0.000000
1.000000 0.000000 0.000000
1.000000 0.000000 0.000000
1.000000 0.000000 0.000000
1.000000 0.000000 0.000000
1.000000 0.000000 0.000000
1.000000 0.000000 0.000000
1.000000 0.000000 0.000000
1.000000 0.000000 0.000000
1.000000 0.000000 0.000000
1.000000 0.000000 0.000000
1.000000 0.000000 0.000000
1.000000 0.000000 0.000000
1.000000 0.000000 0.000000
1.000000 0.000000 0.000000
1.000000 0.000000 0.000000
1.000000 0.000000 0.000000
0.000000 0.000000 0.000000
0.000000 0.000000 0.000000
0.000000 0.000000 0.000000
0.000000 0.000000 0.000000
0.019445 0.000000 0.000000
0.324797 0.000000 0.000000
0.630149 0.000000 0.000000
0.935501 0.000000 0.000000
1.000000 0.000000 0.000000
1.000000 0.000000 0.000000
1.000000 0.000000 0.000000
1.000000 0.000000 0.000000
1.000000 0.000000 0.000000
1.000000 0.000000 0.000000
1.000000 0.000000 0.000000
1.000000 0.000000 0.000000
1.000000 0.000000 0.000000
1.000000 0.000000 0.000000
1.000000 0.000000 0.000000
1.000000 0.000000 0.000000
1.000000 0.000000 0.000000
1.000000 0.000000 0.000000
1.000000 0.000000 0.000000
1.000000 0.000000 0.000000
1.000000 0.000000 0.000000
1.000000 0.000000 0.000000
1.000000 0.000000 0.000000
1.000000 0.000000 0.000000
1.000000 0.000000 0.000000
1.000000 0.000000 0.000000
1.000000 0.000000 0.000000
1.000000 0.000000 0.000000
0.000000 0.000000 0.000000
0.000000 0.000000 0.000000
0.000000 0.000000 0.000000
0.000000 0.000000 0.000000
0.000000 0.000000 0.000000
0.072930 0.000000 0.000000
0.378282 0.000000 0.000000
0.683634 0.000000 0.000000
0.988986 0.000000 0.000000
1.000000 0.000000 0.000000
1.000000 0.000000 0.000000
1.000000 0.000000 0.000000
1.000000 0.000000 0.000000
1.000000 0.000000 0.000000
1.000000 0.000000 0.000000
1.000000 0.000000 0.000000
1.000000 0.000000 0.000000
1.000000 0.000000 0.000000
1.000000 0.000000 0.000000
1.000000 0.000000 0.000000
1.000000 0.000000 0.000000
1.000000 0.000000 0.000000
1.000000 0.000000 0.000000
1.000000 0.000000 0.000000
1.000000 0.000000 0.000000
1.000000 0.000000 0.000000
1.000000 0.000000 0.000000
1.000000 0.000000 0.000000
1.000000 0.000000 0.000000
1.000000 0.000000 0.000000
1.000000 0.000000 0.000000
1.000000 0.000000 0.000000
0.000000 0.057246 0.000000
0.000000 0.031584 0.000000
0.000000 0.005922 0.000000
0.000000 0.000000 0.000000
0.000000 0.000000 0.000000
0.000000 0.000000 0.000000
0.126414 0.000000 0.000000
0.431766 0.000000 0.000000
0.737118 0.000000 0.000000
1.000000 0.000000 0.000000
1.000000 0.000000 0.000000
1.000000 0.000000 0.000000
1.000000 0.000000 0.000000
1.000000 0.000000 0.000000
1.000000 0.000000 0.000000
1.000000 0.000000 0.000000
1.000000 0.000000 0.000000
1.000000 0.000000 0.000000
1.000000 0.000000 0.000000
1.000000 0.000000 0.000000
1.000000 0.000000 0.000000
1.000000 0.000000 0.000000
1.000000 0.000000 0.000000
1.000000 0.000000 0.000000
1.000000 0.000000 0.000000
1.000000 0.000000 0.000000
1.000000 0.000000 0.000000
1.000000 0.000000 0.000000
1.000000 0.000000 0.000000
1.000000 0.000000 0.000000
1.000000 0.000000 0.000000
1.000000 0.000000 0.000000
0.000000 0.152540 0.000000
0.000000 0.126878 0.000000
0.000000 0.101216 0.000000
0.000000 0.075554 0.000000
0.000000 0.049892 0.000000
0.000000 0.024230 0.000000
0.000000 0.000000 0.000000
0.179898 0.000000 0.000000
0.485250 0.000000 0.000000
0.790602 0.000000 0.000000
1.000000 0.000000 0.000000
1.000000 0.000000 0.000000
1.000000 0.000000 0.000000
1.000000 0.000000 0.000000
1.000000 0.000000 0.000000
1.000000 0.000000 0.000000
1.000000 0.000000 0.000000
1.000000 0.000000 0.000000
1.000000 0.000000 0.000000
1.000000 0.000000 0.000000
1.000000 0.000000 0.000000
1.000000 0.000000 0.000000
1.000000 0.000000 0.000000
1.000000 0.000000 0.000000
1.000000 0.000000 0.000000
1.000000 0.000000 0.000000
1.000000 0.000000 0.000000
1.000000 0.000000 0.000000
1.000000 0.000000 0.000000
1.000000 0.000000 0.000000
1.000000 0.000000 0.000000
1.000000 0.000000 0.000000
0.000000 0.247834 0.000000
0.000000 0.222172 0.000000
0.000000 0.196510 0.000000
0.000000 0.170848 0.000000
0.000000 0.145186 0.000000
0.000000 0.119524 0.000000
0.000000 0.093862 0.000000
0.000000 0.068200 0.000000
0.233383 0.042538 0.000000
0.538735 0.016876 0.000000
0.844087 0.000000 0.000000
1.000000 0.000000 0.000000
1.000000 0.000000 0.000000
1.000000 0.000000 0.000000
1.000000 0.000000 0.000000
1.000000 0.000000 0.000000
1.000000 0.000000 0.000000
1.000000 0.000000 0.000000
1.000000 0.000000 0.000000
1.000000 0.000000 0.000000
1.000000 0.000000 0.000000
1.000000 0.000000 0.000000
1.000000 0.000000 0.000000
1.000000 0.000000 0.000000
1.000000 0.000000 0.000000
1.000000 0.000000 0.000000
1.000000 0.000000 0.000000
1.000000 0.000000 0.000000
1.000000 0.000000 0.000000
1.000000 0.000000 0.000000
1.000000 0.000000 0.000000
1.000000 0.000000 0.000000
0.000000 0.343127 0.000000
0.000000 0.317465 0.000000
0.000000 0.291803 0.000000
0.000000 0.266141 0.000000
0.000000 0.240479 0.000000
0.000000 0.214818 0.000000
0.000000 0.189156 0.000000
0.000000 0.163494 0.000000
0.000000 0.137832 0.000000
0.286867 0.112170 0.000000
0.592219 0.086508 0.000000
0.897571 0.060846 0.000000
1.000000 0.035184 0.000000
1.000000 0.009522 0.000000
1.000000 0.000000 0.000000
1.000000 0.000000 0.000000
1.000000 0.000000 0.000000
1.000000 0.000000 0.000000
1.000000 0.000000 0.000000
1.000000 0.000000 0.000000
1.000000 0.000000 0.000000
1.000000 0.000000 0.000000
1.000000 0.000000 0.000000
1.000000 0.000000 0.000000
1.000000 0.000000 0.000000
1.000000 0.000000 0.000000
1.000000 0.000000 0.000000
1.000000 0.000000 0.000000
1.000000 0.000000 0.000000
1.000000 0.000000 0.000000
1.000000 0.000000 0.000000
1.000000 0.000000 0.000000
0.000000 0.438421 0.000000
0.000000 0.412759 0.000000
0.000000 0.387097 0.000000
0.000000 0.361435 0.000000
0.000000 0.335773 0.000000
0.000000 0.310111 0.000000
0.000000 0.284449 0.000000
0.000000 0.258787 0.000000
0.000000 0.233125 0.000000
0.034999 0.207463 0.000000
0.340351 0.181801 0.000000
0.645703 0.156139 0.000000
0.951055 0.130477 0.000000
1.000000 0.104815 0.000000
1.000000 0.079153 0.000000
1.000000 0.053491 0.000000
1.000000 0.027829 0.000000
1.000000 0.002167 0.000000
1.000000 0.000000 0.000000
1.000000 0.000000 0.000000
1.000000 0.000000 0.000000
1.000000 0.000000 0.000000
1.000000 0.000000 0.000000
1.000000 0.000000 0.000000
1.000000 0.000000 0.000000
1.000000 0.000000 0.000000
1.000000 0.000000 0.000000
1.000000 0.000000 0.000000
1.000000 0.000000 0.000000
1.000000 0.000000 0.000000
1.000000 0.000000 0.000000
1.000000 0.000000 0.000000
0.000000 0.533715 0.000000
0.000000 0.508053 0.000000
0.000000 0.482391 0.000000
0.000000 0.456729 0.000000
0.000000 0.431067 0.000000
0.000000 0.405405 0.000000
0.000000 0.379743 0.000000
0.000000 0.354081 0.000000
0.000000 0.328419 0.000000
0.000000 0.302757 0.000000
0.088483 0.277095 0.000000
0.393835 0.251433 0.000000
0.699187 0.225771 0.000000
1.000000 0.200109 0.000000
1.000000 0.174447 0.000000
1.000000 0.148785 0.000000
1.000000 0.123123 0.000000
1.000000 0.097461 0.000000
1.000000 0.071799 0.000000
1.000000 0.046137 0.000000
1.000000 0.020475 0.000000
1.000000 0.000000 0.000000
1.000000 0.000000 0.000000
1.000000 0.000000 0.000000
1.000000 0.000000 0.000000
1.000000 0.000000 0.000000
1.000000 0.000000 0.000000
1.000000 0.000000 0.000000
1.000000 0.000000 0.000000
1.000000 0.000000 0.000000
1.000000 0.000000 0.000000
1.000000 0.000000 0.000000
0.000000 0.629008 0.000000
0.000000 0.603346 0.000000
0.000000 0.577685 0.000000
0.000000 0.552023 0.000000
0.000000 0.526361 0.000000
0.000000 0.500699 0.000000
0.000000 0.475037 0.000000
0.000000 0.449375 0.000000
0.000000 0.423713 0.000000
0.000000 0.398051 0.000000
0.000000 0.372389 0.000000
0.141968 0.346727 0.000000
0.447320 0.321065 0.000000
0.752672 0.295403 0.000000
1.000000 0.269741 0.000000
1.000000 0.244079 0.000000
1.000000 0.218417 0.000000
1.000000 0.192755 0.000000
1.000000 0.167093 0.000000
1.000000 0.141431 0.000000
1.000000 0.115769 0.000000
1.000000 0.090107 0.000000
1.000000 0.064445 0.000000
1.000000 0.038783 0.000000
1.000000 0.013121 0.000000
1.000000 0.000000 0.000000
1.000000 0.000000 0.000000
1.000000 0.000000 0.000000
1.000000 0.000000 0.000000
1.000000 0.000000 0.000000
1.000000 0.000000 0.000000
1.000000 0.000000 0.000000
0.000000 0.724302 0.000000
0.000000 0.698640 0.000000
0.000000 0.672978 0.000000
0.000000 0.647316 0.000000
0.000000 0.621654 0.000000
0.000000 0.595992 0.000000
0.000000 0.570330 0.000000
0.000000 0.544668 0.000000
0.000000 0.519006 0.000000
0.000000 0.493344 0.000000
0.000000 0.467682 0.000000
0.000000 0.442020 0.000000
0.195452 0.416358 0.000000
0.500804 0.390696 0.000000
0.806156 0.365034 0.000000
1.000000 0.339372 0.000000
1.000000 0.313710 0.000000
1.000000 0.288049 0.000000
1.000000 0.262387 0.000000
1.000000 0.236725 0.000000
1.000000 0.211063 0.000000
1.000000 0.185401 0.000000
1.000000 0.159739 0.000000
1.000000 0.134077 0.000000
1.000000 0.108415 0.000000
1.000000 0.082753 0.000000
1.000000 0.057091 0.000000
1.000000 0.031429 0.000000
1.000000 0.005767 0.000000
1.000000 0.000000 0.000000
1.000000 0.000000 0.000000
1.000000 0.000000 0.000000
0.000000 0.819596 0.000000
0.000000 0.793934 0.000000
0.000000 0.768272 0.000000
0.000000 0.742610 0.000000
0.000000 0.716948 0.000000
0.000000 0.691286 0.000000
0.000000 0.665624 0.000000
0.000000 0.639962 0.000000
0.000000 0.614300 0.000000
0.000000 0.588638 0.000000
0.000000 0.562976 0.000000
0.000000 0.537314 0.000000
0.000000 0.511652 0.000000
0.248936 0.485990 0.000000
0.554288 0.460328 0.000000
0.859640 0.434666 0.000000
1.000000 0.409004 0.000000
1.000000 0.383342 0.000000
1.000000 0.357680 0.000000
1.000000 0.332018 0.000000
1.000000 0.306356 0.000000
1.000000 0.280694 0.000000
1.000000 0.255032 0.000000
1.000000 0.229370 0.000000
1.000000 0.203708 0.000000
1.000000 0.178046 0.000000
1.000000 0.152384 0.000000
1.000000 0.126722 0.000000
1.000000 0.101060 0.000000
1.000000 0.075398 0.000000
1.000000 0.028615 0.000000
1.000000 0.000000 0.000000
0.000000 0.914890 0.000000
0.000000 0.889228 0.000000
0.000000 0.863566 0.000000
0.000000 0.837904 0.000000
0.000000 0.812242 0.000000
0.000000 0.786580 0.000000
0.000000 0.760918 0.000000
0.000000 0.735256 0.000000
0.000000 0.709594 0.000000
0.000000 0.683932 0.000000
0.000000 0.658270 0.000000
0.000000 0.632608 0.000000
0.000000 0.606946 0.000000
0.000000 0.581284 0.000000
0.302420 0.555622 0.000000
0.607772 0.529960 0.000000
0.913125 0.504298 0.000000
1.000000 0.478636 0.000000
1.000000 0.452974 0.000000
1.000000 0.427312 0.000000
1.000000 0.401650 0.000000
1.000000 0.375988 0.000000
1.000000 0.350326 0.000000
1.000000 0.324664 0.000000
1.000000 0.299002 0.000000
1.000000 0.273340 0.000000
1.000000 0.247678 0.000000
1.000000 0.222016 0.000000
1.000000 0.196354 0.000000
1.000000 0.170692 0.000000
1.000000 0.145030 0.000000
1.000000 0.088951 0.000000
0.000000 1.000000 0.000000
0.000000 0.984521 0.000000
0.000000 0.958859 0.000000
0.000000 0.933197 0.000000
0.000000 0.907535 0.000000
0.000000 0.881873 0.000000
0.000000 0.856211 0.000000
0.000000 0.830549 0.000000
0.000000 0.804887 0.000000
0.000000 0.779225 0.000000
0.000000 0.753563 0.000000
0.000000 0.727901 0.000000
0.000000 0.702239 0.000000
0.000000 0.676577 0.000000
0.050553 0.650916 0.000000
0.355905 0.625254 0.000000
0.661257 0.599592 0.000000
0.966609 0.573930 0.000000
1.000000 0.548268 0.000000
1.000000 0.522606 0.000000
1.000000 0.496944 0.000000
1.000000 0.471282 0.000000
1.000000 0.445620 0.000000
1.000000 0.419958 0.000000
1.000000 0.394296 0.000000
1.000000 0.368634 0.000000
1.000000 0.342972 0.000000
1.000000 0.317310 0.000000
1.000000 0.291648 0.000000
1.000000 0.265986 0.000000
1.000000 0.240324 0.000000
1.000000 0.210293 0.000000
0.000000 1.000000 0.000000
0.000000 1.000000 0.000000
0.000000 1.000000 0.000000
0.000000 1.000000 0.000000
0.000000 1.000000 0.000000
0.000000 0.977167 0.000000
0.000000 0.951505 0.000000
0.000000 0.925843 0.000000
0.000000 0.900181 0.000000
0.000000 0.874519 0.000000
0.000000 0.848857 0.000000
0.000000 0.823195 0.000000
0.000000 0.797533 0.000000
0.000000 0.771871 0.000000
0.000000 0.746209 0.000000
0.104037 0.720547 0.000000
0.409389 0.694885 0.000000
0.714741 0.669223 0.000000
1.000000 0.643561 0.000000
1.000000 0.617899 0.000000
1.000000 0.592237 0.000000
1.000000 0.566575 0.000000
1.000000 0.540913 0.000000
1.000000 0.515251 0.000000
1.000000 0.489589 0.000000
1.000000 0.463927 0.000000
1.000000 0.438265 0.000000
1.000000 0.412603 0.000000
1.000000 0.386941 0.000000
1.000000 0.361279 0.000000
1.000000 0.335618 0.000000
1.000000 0.309956 0.000000
0.000000 1.000000 0.000000
0.000000 1.000000 0.000000
0.000000 1.000000 0.000000
0.000000 1.000000 0.000000
0.000000 1.000000 0.000000
0.000000 1.000000 0.000000
0.000000 1.000000 0.000000
0.000000 1.000000 0.000000
0.000000 0.995475 0.000000
0.000000 0.969813 0.000000
0.000000 0.944151 0.000000
0.000000 0.918489 0.000000
0.000000 0.892827 0.000000
0.000000 0.867165 0.000000
0.000000 0.841503 0.000000
0.000000 0.815841 0.000000
0.157521 0.790179 0.000000
0.462873 0.764517 0.000000
0.768225 0.738855 0.000000
1.000000 0.713193 0.000000
1.000000 0.687531 0.000000
1.000000 0.661869 0.000000
1.000000 0.636207 0.000000
1.000000 0.610545 0.000000
1.000000 0.584883 0.000000
1.000000 0.559221 0.000000
1.000000 0.533559 0.000000
1.000000 0.507897 0.000000
1.000000 0.482235 0.000000
1.000000 0.456573 0.000000
1.000000 0.430911 0.000000
1.000000 0.405249 0.000000
0.000000 1.000000 0.000000
0.000000 1.000000 0.000000
0.000000 1.000000 0.000000
0.000000 1.000000 0.000000
0.000000 1.000000 0.000000
0.000000 1.000000 0.000000
0.000000 1.000000 0.000000
0.000000 1.000000 0.000000
0.000000 1.000000 0.000000
0.000000 1.000000 0.000000
0.000000 1.000000 0.000000
0.000000 1.000000 0.000000
0.000000 0.988121 0.000000
0.000000 0.962459 0.000000
0.000000 0.936797 0.000000
0.000000 0.911135 0.000000
0.000000 0.885473 0.000000
0.211006 0.859811 0.000000
0.516358 0.834149 0.000000
0.821710 0.808487 0.000000
1.000000 0.782825 0.000000
1.000000 0.757163 0.000000
1.000000 0.731501 0.000000
1.000000 0.705839 0.000000
1.000000 0.680177 0.000000
1.000000 0.654515 0.000000
1.000000 0.628853 0.000000
1.000000 0.603191 0.000000
1.000000 0.577529 0.000000
1.000000 0.551867 0.000000
1.000000 0.526205 0.000000
1.000000 0.500543 0.000000
0.000000 1.000000 0.000000
0.000000 1.000000 0.000000
0.000000 1.000000 0.000000
0.000000 1.000000 0.000000
0.000000 1.000000 0.000000
0.000000 1.000000 0.000000
0.000000 1.000000 0.000000
0.000000 1.000000 0.000000
0.000000 1.000000 0.000000
0.000000 1.000000 0.000000
0.000000 1.000000 0.000000
0.000000 1.000000 0.000000
0.000000 1.000000 0.000000
0.000000 1.000000 0.000000
0.000000 1.000000 0.000000
0.000000 1.000000 0.000000
0.000000 0.980766 0.000000
0.000000 0.955104 0.000000
0.264490 0.929442 0.000000
0.569842 0.903780 0.000000
0.875194 0.878118 0.000000
1.000000 0.852456 0.000000
1.000000 0.826794 0.000000
1.000000 0.801132 0.000000
1.000000 0.775470 0.000000
1.000000 0.749808 0.000000
1.000000 0.724146 0.000000
1.000000 0.698485 0.000000
1.000000 0.672823 0.000000
1.000000 0.647161 0.000000
1.000000 0.621499 0.000000
1.000000 0.595837 0.000000
0.000000 1.000000 0.000000
0.000000 1.000000 0.000000
0.000000 1.000000 0.000000
0.000000 1.000000 0.000000
0.000000 1.000000 0.000000
0.000000 1.000000 0.000000
0.000000 1.000000 0.000000
0.000000 1.000000 0.000000
0.000000 1.000000 0.000000
0.000000 1.000000 0.000000
0.000000 1.000000 0.000000
0.000000 1.000000 0.000000
0.000000 1.000000 0.000000
0.000000 1.000000 0.000000
0.000000 1.000000 0.000000
0.000000 1.000000 0.000000
0.000000 1.000000 0.000000
0.000000 1.000000 0.000000
0.012622 1.000000 0.000000
0.317974 0.999074 0.000000
0.623326 0.973412 0.000000
0.928678 0.947750 0.000000
1.000000 0.922088 0.000000
1.000000 0.896426 0.000000
1.000000 0.870764 0.000000
1.000000 0.845102 0.000000
1.000000 0.819440 0.000000
1.000000 0.793778 0.000000
1.000000 0.768116 0.000000
1.000000 0.742454 0.000000
1.000000 0.716792 0.000000
1.000000 0.691130 0.000000
0.000000 1.000000 0.000000
0.000000 1.000000 0.000000
0.000000 1.000000 0.000000
0.000000 1.000000 0.000000
0.000000 1.000000 0.000000
0.000000 1.000000 0.000000
0.000000 1.000000 0.000000
0.000000 1.000000 0.000000
0.000000 1.000000 0.000000
0.000000 1.000000 0.000000
0.000000 1.000000 0.000000
0.000000 1.000000 0.000000
0.000000 1.000000 0.000000
0.000000 1.000000 0.000000
0.000000 1.000000 0.000000
0.000000 1.000000 0.000000
0.000000 1.000000 0.000000
0.000000 1.000000 0.000000
0.000000 1.000000 0.000000
0.066106 1.000000 0.000000
0.371458 1.000000 0.000000
0.676810 1.000000 0.000000
0.982162 1.000000 0.000000
1.000000 0.991720 0.000000
1.000000 0.966058 0.000000
1.000000 0.940396 0.000000
1.000000 0.914734 0.000000
1.000000 0.889072 0.000000
1.000000 0.863410 0.000000
1.000000 0.837748 0.000000
1.000000 0.812086 0.000000
1.000000 0.786424 0.000000
0.000000 1.000000 0.000000
0.000000 1.000000 0.000000
0.000000 1.000000 0.000000
0.000000 1.000000 0.000000
0.000000 1.000000 0.000000
0.000000 1.000000 0.000000
0.000000 1.000000 0.000000
0.000000 1.000000 0.000000
0.000000 1.000000 0.000000
0.000000 1.000000 0.000000
0.000000 1.000000 0.000000
0.000000 1.000000 0.000000
0.000000 1.000000 0.000000
0.000000 1.000000 0.000000
0.000000 1.000000 0.000000
0.000000 1.000000 0.000000
0.000000 1.000000 0.000000
0.000000 1.000000 0.000000
0.000000 1.000000 0.000000
0.000000 1.000000 0.000000
0.119591 1.000000 0.000000
0.424943 1.000000 0.000000
0.730295 1.000000 0.000000
1.000000 1.000000 0.000000
1.000000 1.000000 0.000000
1.000000 1.000000 0.000000
1.000000 1.000000 0.000000
1.000000 0.984366 0.000000
1.000000 0.958704 0.000000
1.000000 0.933042 0.000000
1.000000 0.907380 0.000000
1.000000 0.881718 0.000000
0.000000 1.000000 0.000000
0.000000 1.000000 0.000000
0.000000 1.000000 0.000000
0.000000 1.000000 0.000000
0.000000 1.000000 0.000000
0.000000 1.000000 0.000000
0.000000 1.000000 0.000000
0.000000 1.000000 0.000000
0.000000 1.000000 0.000000
0.000000 1.000000 0.000000
0.000000 1.000000 0.000000
0.000000 1.000000 0.000000
0.000000 1.000000 0.000000
0.000000 1.000000 0.000000
0.000000 1.000000 0.000000
0.000000 1.000000 0.000000
0.000000 1.000000 0.000000
0.000000 1.000000 0.000000
0.000000 1.000000 0.000000
0.000000 1.000000 0.000000
0.000000 1.000000 0.000000
0.173075 1.000000 0.000000
0.478427 1.000000 0.000000
0.783779 1.000000 0.000000
1.000000 1.000000 0.000000
1.000000 1.000000 0.000000
1.000000 1.000000 0.000000
1.000000 1.000000 0.000000
1.000000 1.000000 0.000000
1.000000 1.000000 0.000000
1.000000 1.000000 0.000000
1.000000 0.977011 0.000000
0.000000 1.000000 0.000000
0.000000 1.000000 0.000000
0.000000 1.000000 0.000000
0.000000 1.000000 0.000000
0.000000 1.000000 0.000000
0.000000 1.000000 0.000000
0.000000 1.000000 0.000000
0.000000 1.000000 0.000000
0.000000 1.000000 0.000000
0.000000 1.000000 0.000000
0.000000 1.000000 0.000000
0.000000 1.000000 0.000000
0.000000 1.000000 0.000000
0.000000 1.000000 0.000000
0.000000 1.000000 0.000000
0.000000 1.000000 0.000000
0.000000 1.000000 0.000000
0.000000 1.000000 0.000000
0.000000 1.000000 0.000000
0.000000 1.000000 0.000000
0.000000 1.000000 0.000000
0.000000 1.000000 0.000000
0.226559 1.000000 0.000000
0.531911 1.000000 0.000000
0.837263 1.000000 0.000000
1.000000 1.000000 0.000000
1.000000 1.000000 0.000000
1.000000 1.000000 0.000000
1.000000 1.000000 0.000000
1.000000 1.000000 0.000000
1.000000 1.000000 0.000000
1.000000 1.000000 0.000000
0.000000 1.000000 0.000000
0.000000 1.000000 0.000000
0.000000 1.000000 0.000000
0.000000 1.000000 0.000000
0.000000 1.000000 0.000000
0.000000 1.000000 0.000000
0.000000 1.000000 0.000000
0.000000 1.000000 0.000000
0.000000 1.000000 0.000000
0.000000 1.000000 0.000000
0.000000 1.000000 0.000000
0.000000 1.000000 0.000000
0.000000 1.000000 0.000000
0.000000 1.000000 0.000000
0.000000 1.000000 0.000000
0.000000 1.000000 0.000000
0.000000 1.000000 0.000000
0.000000 1.000000 0.000000
0.000000 1.000000 0.000000
0.000000 1.000000 0.000000
0.000000 1.000000 0.000000
0.000000 1.000000 0.000000
0.000000 1.000000 0.000000
0.280043 1.000000 0.000000
0.585396 1.000000 0.000000
0.890748 1.000000 0.000000
1.000000 1.000000 0.000000
1.000000 1.000000 0.000000
1.000000 1.000000 0.000000
1.000000 1.000000 0.000000
1.000000 1.000000 0.000000
1.000000 1.000000 0.000000
0.000000 1.000000 0.000000
0.000000 1.000000 0.000000
0.000000 1.000000 0.000000
0.000000 1.000000 0.000000
0.000000 1.000000 0.000000
0.000000 1.000000 0.000000
0.000000 1.000000 0.000000
0.000000 1.000000 0.000000
0.000000 1.000000 0.000000
0.000000 1.000000 0.000000
0.000000 1.000000 0.000000
0.000000 1.000000 0.000000
0.000000 1.000000 0.000000
0.000000 1.000000 0.000000
0.000000 1.000000 0.000000
0.000000 1.000000 0.000000
0.000000 1.000000 0.000000
0.000000 1.000000 0.000000
0.000000 1.000000 0.000000
0.000000 1.000000 0.000000
0.000000 1.000000 0.000000
0.000000 1.000000 0.000000
0.000000 1.000000 0.000000
0.028176 1.000000 0.000000
0.333528 1.000000 0.000000
0.638880 1.000000 0.000000
0.944232 1.000000 0.000000
1.000000 1.000000 0.000000
1.000000 1.000000 0.000000
1.000000 1.000000 0.000000
1.000000 1.000000 0.000000
1.000000 1.000000 0.000000
0.000000 1.000000 0.000000
0.000000 1.000000 0.000000
0.000000 1.000000 0.000000
0.000000 1.000000 0.000000
0.000000 1.000000 0.000000
0.000000 1.000000 0.000000
0.000000 1.000000 0.000000
0.000000 1.000000 0.000000
0.000000 1.000000 0.000000
0.000000 1.000000 0.000000
0.000000 1.000000 0.000000
0.000000 1.000000 0.000000
0.000000 1.000000 0.000000
0.000000 1.000000 0.000000
0.000000 1.000000 0.000000
