fun-test/static/cube/黄色皮肤.cube
#Created by: Adobe Photoshop Export Color Lookup Plugin
TITLE "5c8a1e03615c1.jpg"
#LUT size
LUT_3D_SIZE 9
#data domain
DOMAIN_MIN 0.0 0.0 0.0
DOMAIN_MAX 1.0 1.0 1.0
#LUT data points
0.811768 0.639221 0.572540
0.768616 0.643127 0.564697
0.764709 0.572540 0.505890
0.674500 0.529419 0.439209
0.117645 0.109802 0.066681
0.062744 0.054901 0.035309
0.070587 0.050995 0.035309
0.113739 0.054901 0.031372
0.462738 0.545105 0.631378
0.878418 0.721558 0.611755
0.898041 0.694122 0.596069
0.870575 0.686279 0.568634
0.866669 0.607849 0.525482
0.474518 0.435303 0.360779
0.109802 0.098053 0.062744
0.043152 0.070587 0.039215
0.074524 0.039215 0.019623
0.356873 0.529419 0.592163
0.972534 0.752930 0.576477
0.984314 0.749023 0.572540
0.972534 0.721558 0.576477
0.788239 0.662750 0.568634
0.505890 0.490204 0.509796
0.474518 0.474518 0.490204
0.376465 0.368622 0.352936
0.298035 0.341187 0.384308
0.439209 0.576477 0.615692
1.000000 0.796082 0.552948
1.000000 0.756866 0.509796
0.968628 0.741180 0.509796
0.639221 0.537262 0.474518
0.607849 0.521576 0.466675
0.447052 0.411774 0.388245
0.454895 0.423523 0.360779
0.184326 0.200012 0.219604
0.478424 0.564697 0.584320
1.000000 0.799988 0.486267
1.000000 0.764709 0.439209
1.000000 0.764709 0.470581
1.000000 0.752930 0.517639
0.600006 0.498047 0.411774
0.635284 0.505890 0.399994
0.662750 0.517639 0.407837
0.439209 0.380402 0.313721
0.674500 0.674500 0.643127
1.000000 0.803925 0.443146
1.000000 0.792145 0.431366
1.000000 0.760773 0.403931
1.000000 0.729401 0.384308
1.000000 0.717651 0.384308
0.878418 0.584320 0.341187
0.827454 0.549011 0.356873
0.556854 0.388245 0.278442
0.819611 0.713715 0.607849
1.000000 0.745087 0.309814
1.000000 0.717651 0.294128
1.000000 0.698029 0.274506
1.000000 0.654907 0.247070
1.000000 0.635284 0.250977
1.000000 0.592163 0.223541
0.933319 0.490204 0.215698
0.686279 0.376465 0.200012
0.682343 0.474518 0.325500
1.000000 0.654907 0.192169
1.000000 0.592163 0.137268
1.000000 0.545105 0.105896
1.000000 0.556854 0.109802
1.000000 0.560791 0.121582
1.000000 0.513733 0.094116
1.000000 0.368622 0.000000
1.000000 0.329407 0.000000
0.615692 0.262756 0.023529
1.000000 0.917633 0.356873
1.000000 0.905884 0.317657
1.000000 0.882355 0.278442
1.000000 0.850983 0.266663
1.000000 0.799988 0.215698
1.000000 0.792145 0.223541
1.000000 0.776459 0.203918
1.000000 0.694122 0.133331
1.000000 0.564697 0.007843
0.819611 0.654907 0.572540
0.760773 0.619598 0.545105
0.776459 0.588226 0.529419
0.615692 0.490204 0.407837
0.086273 0.082367 0.043152
0.050995 0.054901 0.039215
0.074524 0.047058 0.043152
0.066681 0.047058 0.043152
0.396088 0.541168 0.639221
0.886261 0.705872 0.592163
0.901947 0.698029 0.596069
0.858826 0.674500 0.545105
0.886261 0.611755 0.521576
0.521576 0.470581 0.388245
0.101959 0.109802 0.062744
0.043152 0.074524 0.035309
0.098053 0.050995 0.027466
0.352936 0.513733 0.572540
0.972534 0.752930 0.580383
0.992157 0.760773 0.580383
0.968628 0.717651 0.572540
0.698029 0.584320 0.490204
0.509796 0.490204 0.509796
0.474518 0.466675 0.478424
0.447052 0.443146 0.415680
0.286285 0.329407 0.360779
0.431366 0.537262 0.592163
1.000000 0.784302 0.537262
1.000000 0.764709 0.517639
0.964691 0.737244 0.505890
0.631378 0.517639 0.466675
0.627441 0.517639 0.470581
0.447052 0.399994 0.384308
0.447052 0.415680 0.349030
0.188232 0.203918 0.223541
0.454895 0.541168 0.560791
1.000000 0.796082 0.466675
1.000000 0.772552 0.439209
1.000000 0.756866 0.490204
1.000000 0.733337 0.458832
0.658813 0.482361 0.403931
0.635284 0.494110 0.384308
0.666656 0.498047 0.396088
0.474518 0.372559 0.329407
0.666656 0.674500 0.643127
1.000000 0.807831 0.443146
1.000000 0.788239 0.427460
1.000000 0.764709 0.411774
1.000000 0.729401 0.380402
1.000000 0.705872 0.368622
0.890198 0.596069 0.352936
0.843140 0.564697 0.368622
0.533325 0.372559 0.262756
0.819611 0.713715 0.607849
1.000000 0.749023 0.313721
1.000000 0.717651 0.294128
1.000000 0.682343 0.254913
1.000000 0.643127 0.235291
1.000000 0.631378 0.250977
1.000000 0.596069 0.239227
0.945099 0.482361 0.223541
0.686279 0.360779 0.180389
0.674500 0.454895 0.301971
1.000000 0.654907 0.184326
1.000000 0.584320 0.121582
1.000000 0.552948 0.094116
1.000000 0.560791 0.121582
1.000000 0.564697 0.129425
1.000000 0.509796 0.090210
1.000000 0.388245 0.000000
1.000000 0.329407 0.000000
0.596069 0.247070 0.007843
1.000000 0.933319 0.372559
1.000000 0.913727 0.317657
1.000000 0.898041 0.301971
1.000000 0.847046 0.219604
1.000000 0.815674 0.215698
1.000000 0.807831 0.235291
1.000000 0.807831 0.219604
1.000000 0.705872 0.145111
1.000000 0.572540 0.000000
0.819611 0.650970 0.572540
0.772552 0.615692 0.549011
0.780396 0.600006 0.533325
0.650970 0.509796 0.419617
0.101959 0.098053 0.047058
0.062744 0.058838 0.039215
0.078430 0.039215 0.035309
0.086273 0.054901 0.047058
0.396088 0.529419 0.631378
0.886261 0.701965 0.576477
0.901947 0.701965 0.572540
0.850983 0.678436 0.545105
0.847046 0.627441 0.525482
0.564697 0.525482 0.447052
0.137268 0.129425 0.094116
0.066681 0.082367 0.043152
0.145111 0.074524 0.043152
0.407837 0.517639 0.580383
0.976471 0.756866 0.588226
0.988220 0.756866 0.576477
0.976471 0.737244 0.576477
0.721558 0.615692 0.521576
0.517639 0.498047 0.505890
0.454895 0.447052 0.443146
0.454895 0.454895 0.407837
0.266663 0.309814 0.341187
0.423523 0.541168 0.576477
1.000000 0.796082 0.533325
1.000000 0.764709 0.521576
0.937256 0.729401 0.541168
0.631378 0.533325 0.458832
0.627441 0.541168 0.486267
0.450989 0.403931 0.384308
0.439209 0.403931 0.352936
0.180389 0.196075 0.200012
0.466675 0.552948 0.560791
1.000000 0.799988 0.478424
1.000000 0.776459 0.447052
1.000000 0.752930 0.470581
1.000000 0.733337 0.443146
0.666656 0.482361 0.403931
0.658813 0.505890 0.396088
0.674500 0.474518 0.364716
0.494110 0.372559 0.309814
0.690186 0.674500 0.650970
1.000000 0.803925 0.443146
1.000000 0.788239 0.411774
1.000000 0.760773 0.403931
1.000000 0.737244 0.396088
1.000000 0.717651 0.380402
0.874512 0.572540 0.329407
0.823517 0.545105 0.352936
0.556854 0.388245 0.274506
0.831360 0.729401 0.627441
1.000000 0.749023 0.309814
1.000000 0.709808 0.278442
1.000000 0.674500 0.247070
1.000000 0.639221 0.235291
1.000000 0.627441 0.247070
1.000000 0.576477 0.223541
0.952942 0.470581 0.215698
0.713715 0.372559 0.180389
0.709808 0.482361 0.337250
1.000000 0.643127 0.172546
1.000000 0.588226 0.113739
1.000000 0.549011 0.094116
1.000000 0.564697 0.129425
1.000000 0.572540 0.125488
1.000000 0.525482 0.070587
1.000000 0.372559 0.007843
1.000000 0.329407 0.000000
0.658813 0.235291 0.000000
1.000000 0.945099 0.403931
1.000000 0.913727 0.298035
1.000000 0.909790 0.313721
1.000000 0.870575 0.254913
1.000000 0.835297 0.243134
1.000000 0.823517 0.239227
1.000000 0.819611 0.239227
1.000000 0.713715 0.149017
1.000000 0.647064 0.117645
0.835297 0.674500 0.596069
0.788239 0.627441 0.560791
0.792145 0.611755 0.545105
0.662750 0.521576 0.419617
0.105896 0.098053 0.043152
0.074524 0.058838 0.031372
0.101959 0.062744 0.050995
0.137268 0.090210 0.082367
0.427460 0.549011 0.643127
0.898041 0.713715 0.592163
0.905884 0.705872 0.572540
0.886261 0.682343 0.568634
0.854889 0.635284 0.533325
0.580383 0.517639 0.454895
0.321564 0.247070 0.227448
0.090210 0.090210 0.058838
0.258820 0.160797 0.117645
0.439209 0.537262 0.588226
0.964691 0.764709 0.611755
1.000000 0.756866 0.560791
0.980377 0.717651 0.533325
0.784302 0.647064 0.572540
0.545105 0.494110 0.474518
0.439209 0.458832 0.462738
0.435303 0.435303 0.376465
0.266663 0.313721 0.368622
0.403931 0.552948 0.572540
1.000000 0.788239 0.521576
1.000000 0.760773 0.521576
0.945099 0.737244 0.552948
0.635284 0.529419 0.447052
0.654907 0.541168 0.490204
0.466675 0.411774 0.380402
0.450989 0.415680 0.368622
0.172546 0.180389 0.200012
0.474518 0.560791 0.580383
1.000000 0.807831 0.490204
1.000000 0.780396 0.450989
1.000000 0.764709 0.466675
1.000000 0.737244 0.435303
0.678436 0.482361 0.407837
0.666656 0.513733 0.392151
0.647064 0.490204 0.364716
0.505890 0.403931 0.345093
0.682343 0.698029 0.666656
1.000000 0.799988 0.435303
1.000000 0.788239 0.415680
1.000000 0.756866 0.396088
1.000000 0.725494 0.376465
1.000000 0.725494 0.396088
0.890198 0.592163 0.345093
0.835297 0.556854 0.360779
0.545105 0.380402 0.266663
0.827454 0.725494 0.619598
1.000000 0.737244 0.294128
1.000000 0.717651 0.290192
1.000000 0.666656 0.250977
1.000000 0.662750 0.247070
1.000000 0.619598 0.235291
1.000000 0.584320 0.227448
0.956848 0.482361 0.211761
0.658813 0.349030 0.164703
0.686279 0.470581 0.298035
1.000000 0.639221 0.164703
1.000000 0.592163 0.121582
1.000000 0.556854 0.098053
1.000000 0.564697 0.125488
1.000000 0.576477 0.125488
1.000000 0.529419 0.086273
1.000000 0.384308 0.003937
1.000000 0.333344 0.000000
0.690186 0.235291 0.000000
1.000000 0.960785 0.399994
1.000000 0.921570 0.325500
1.000000 0.925476 0.337250
1.000000 0.890198 0.290192
1.000000 0.850983 0.254913
1.000000 0.831360 0.235291
1.000000 0.823517 0.211761
1.000000 0.745087 0.180389
1.000000 0.682343 0.054901
0.819611 0.654907 0.572540
0.811768 0.635284 0.576477
0.799988 0.611755 0.556854
0.729401 0.560791 0.466675
0.145111 0.133331 0.070587
0.086273 0.066681 0.039215
0.113739 0.054901 0.031372
0.141174 0.090210 0.066681
0.435303 0.545105 0.631378
0.901947 0.721558 0.592163
0.909790 0.713715 0.580383
0.882355 0.690186 0.576477
0.886261 0.650970 0.533325
0.529419 0.482361 0.490204
0.505890 0.490204 0.486267
0.399994 0.384308 0.352936
0.419617 0.450989 0.509796
0.419617 0.529419 0.592163
0.968628 0.756866 0.603912
1.000000 0.760773 0.576477
0.980377 0.729401 0.549011
0.729401 0.600006 0.517639
0.560791 0.501953 0.482361
0.443146 0.458832 0.466675
0.415680 0.415680 0.356873
0.262756 0.309814 0.364716
0.427460 0.564697 0.592163
1.000000 0.792145 0.541168
1.000000 0.760773 0.517639
0.937256 0.741180 0.568634
0.647064 0.549011 0.474518
0.643127 0.545105 0.474518
0.474518 0.415680 0.384308
0.466675 0.407837 0.356873
0.188232 0.203918 0.207855
0.478424 0.572540 0.576477
1.000000 0.807831 0.486267
1.000000 0.784302 0.458832
1.000000 0.760773 0.466675
1.000000 0.745087 0.450989
0.705872 0.509796 0.419617
0.666656 0.498047 0.384308
0.650970 0.486267 0.392151
0.505890 0.396088 0.349030
0.690186 0.698029 0.666656
1.000000 0.799988 0.431366
1.000000 0.776459 0.403931
1.000000 0.741180 0.415680
1.000000 0.729401 0.376465
1.000000 0.709808 0.325500
0.945099 0.600006 0.360779
0.850983 0.549011 0.345093
0.572540 0.384308 0.266663
0.847046 0.729401 0.611755
1.000000 0.729401 0.290192
1.000000 0.709808 0.286285
1.000000 0.662750 0.243134
1.000000 0.654907 0.247070
1.000000 0.619598 0.231384
1.000000 0.592163 0.235291
0.956848 0.470581 0.180389
0.658813 0.333344 0.152954
0.670593 0.454895 0.294128
1.000000 0.650970 0.176483
1.000000 0.576477 0.105896
1.000000 0.552948 0.090210
1.000000 0.568634 0.125488
1.000000 0.576477 0.125488
1.000000 0.529419 0.070587
1.000000 0.376465 0.000000
1.000000 0.333344 0.000000
0.745087 0.247070 0.003937
1.000000 0.972534 0.399994
1.000000 0.937256 0.360779
1.000000 0.937256 0.356873
1.000000 0.901947 0.313721
1.000000 0.854889 0.270599
1.000000 0.831360 0.231384
1.000000 0.827454 0.227448
1.000000 0.756866 0.172546
1.000000 0.709808 0.000000
0.847046 0.654907 0.572540
0.776459 0.650970 0.568634
0.796082 0.615692 0.549011
0.658813 0.556854 0.470581
0.117645 0.133331 0.078430
0.062744 0.054901 0.031372
0.066681 0.043152 0.031372
0.062744 0.050995 0.027466
0.392151 0.541168 0.603912
0.913727 0.721558 0.600006
0.909790 0.701965 0.572540
0.898041 0.701965 0.592163
0.886261 0.650970 0.537262
0.564697 0.486267 0.490204
0.513733 0.494110 0.490204
0.380402 0.392151 0.356873
0.419617 0.486267 0.533325
0.403931 0.521576 0.568634
0.980377 0.768616 0.611755
1.000000 0.756866 0.564697
0.968628 0.709808 0.521576
0.772552 0.647064 0.564697
0.549011 0.490204 0.474518
0.435303 0.447052 0.454895
0.415680 0.415680 0.356873
0.270599 0.313721 0.372559
0.403931 0.541168 0.568634
1.000000 0.796082 0.545105
1.000000 0.772552 0.517639
0.909790 0.713715 0.529419
0.647064 0.568634 0.501953
0.643127 0.560791 0.494110
0.458832 0.419617 0.380402
0.462738 0.415680 0.356873
0.172546 0.188232 0.188232
0.494110 0.580383 0.572540
1.000000 0.807831 0.478424
1.000000 0.784302 0.454895
1.000000 0.776459 0.431366
1.000000 0.733337 0.415680
0.698029 0.521576 0.392151
0.686279 0.513733 0.407837
0.654907 0.486267 0.372559
0.513733 0.407837 0.349030
0.698029 0.709808 0.678436
1.000000 0.807831 0.439209
1.000000 0.776459 0.407837
1.000000 0.737244 0.384308
1.000000 0.733337 0.337250
1.000000 0.705872 0.317657
0.992157 0.647064 0.352936
0.847046 0.537262 0.337250
0.607849 0.411774 0.290192
0.843140 0.717651 0.596069
1.000000 0.733337 0.294128
1.000000 0.694122 0.258820
1.000000 0.654907 0.235291
1.000000 0.639221 0.231384
1.000000 0.611755 0.219604
1.000000 0.588226 0.223541
0.952942 0.458832 0.168640
0.698029 0.345093 0.180389
0.666656 0.447052 0.278442
1.000000 0.639221 0.164703
1.000000 0.588226 0.125488
1.000000 0.556854 0.098053
1.000000 0.576477 0.133331
1.000000 0.580383 0.125488
1.000000 0.529419 0.070587
1.000000 0.392151 0.031372
1.000000 0.329407 0.000000
0.752930 0.247070 0.000000
1.000000 0.988220 0.439209
1.000000 0.945099 0.403931
1.000000 0.949005 0.360779
1.000000 0.913727 0.329407
1.000000 0.870575 0.282349
1.000000 0.839203 0.258820
1.000000 0.811768 0.211761
1.000000 0.776459 0.145111
1.000000 0.741180 0.105896
0.850983 0.654907 0.576477
0.780396 0.643127 0.564697
0.792145 0.600006 0.525482
0.627441 0.541168 0.458832
0.101959 0.129425 0.082367
0.058838 0.062744 0.043152
0.066681 0.050995 0.039215
0.054901 0.058838 0.031372
0.384308 0.525482 0.603912
0.913727 0.725494 0.603912
0.921570 0.717651 0.596069
0.894104 0.698029 0.584320
0.894104 0.650970 0.552948
0.556854 0.509796 0.517639
0.490204 0.478424 0.474518
0.388245 0.376465 0.349030
0.407837 0.443146 0.498047
0.435303 0.517639 0.576477
0.976471 0.756866 0.588226
1.000000 0.760773 0.564697
0.968628 0.717651 0.525482
0.796082 0.670593 0.592163
0.541168 0.482361 0.466675
0.415680 0.427460 0.435303
0.399994 0.415680 0.352936
0.274506 0.305878 0.364716
0.403931 0.537262 0.564697
1.000000 0.792145 0.513733
1.000000 0.764709 0.533325
0.878418 0.709808 0.572540
0.654907 0.552948 0.478424
0.556854 0.482361 0.435303
0.482361 0.415680 0.396088
0.462738 0.403931 0.364716
0.172546 0.184326 0.176483
0.494110 0.572540 0.615692
1.000000 0.811768 0.482361
1.000000 0.784302 0.458832
1.000000 0.768616 0.427460
1.000000 0.737244 0.431366
0.725494 0.541168 0.403931
0.682343 0.509796 0.384308
0.670593 0.490204 0.368622
0.478424 0.376465 0.313721
0.713715 0.701965 0.666656
1.000000 0.799988 0.431366
1.000000 0.776459 0.403931
1.000000 0.745087 0.384308
1.000000 0.729401 0.337250
1.000000 0.705872 0.333344
1.000000 0.674500 0.380402
0.870575 0.556854 0.368622
0.627441 0.415680 0.298035
0.847046 0.721558 0.603912
1.000000 0.725494 0.282349
1.000000 0.678436 0.243134
1.000000 0.650970 0.231384
1.000000 0.643127 0.239227
1.000000 0.607849 0.211761
1.000000 0.576477 0.207855
0.945099 0.450989 0.156860
0.694122 0.341187 0.176483
0.654907 0.435303 0.270599
1.000000 0.631378 0.149017
1.000000 0.600006 0.129425
1.000000 0.572540 0.117645
1.000000 0.572540 0.137268
1.000000 0.580383 0.133331
1.000000 0.537262 0.086273
1.000000 0.427460 0.000000
1.000000 0.337250 0.000000
0.827454 0.235291 0.000000
1.000000 1.000000 0.474518
1.000000 0.960785 0.384308
1.000000 0.956848 0.388245
1.000000 0.921570 0.345093
1.000000 0.874512 0.290192
1.000000 0.839203 0.254913
1.000000 0.799988 0.239227
1.000000 0.776459 0.164703
1.000000 0.776459 0.074524
0.862732 0.674500 0.596069
0.776459 0.627441 0.549011
0.784302 0.603912 0.533325
0.615692 0.552948 0.490204
0.082367 0.117645 0.074524
0.062744 0.058838 0.039215
0.066681 0.058838 0.050995
0.066681 0.070587 0.054901
0.372559 0.525482 0.607849
0.917633 0.729401 0.603912
0.921570 0.717651 0.596069
0.890198 0.705872 0.596069
0.882355 0.662750 0.556854
0.552948 0.509796 0.513733
0.494110 0.501953 0.490204
0.427460 0.423523 0.396088
0.396088 0.447052 0.501953
0.415680 0.525482 0.576477
0.984314 0.764709 0.600006
1.000000 0.760773 0.600006
0.952942 0.705872 0.592163
0.850983 0.694122 0.564697
0.486267 0.482361 0.490204
0.423523 0.419617 0.431366
0.427460 0.403931 0.396088
0.262756 0.290192 0.352936
0.407837 0.521576 0.596069
1.000000 0.796082 0.509796
1.000000 0.776459 0.541168
0.862732 0.694122 0.541168
0.650970 0.556854 0.470581
0.564697 0.494110 0.435303
0.486267 0.423523 0.380402
0.454895 0.399994 0.356873
0.196075 0.207855 0.200012
0.490204 0.568634 0.611755
1.000000 0.803925 0.474518
1.000000 0.788239 0.462738
1.000000 0.772552 0.419617
1.000000 0.733337 0.415680
0.741180 0.541168 0.407837
0.705872 0.517639 0.396088
0.658813 0.490204 0.368622
0.498047 0.392151 0.325500
0.741180 0.717651 0.686279
1.000000 0.799988 0.431366
1.000000 0.780396 0.415680
1.000000 0.749023 0.392151
1.000000 0.729401 0.337250
1.000000 0.701965 0.345093
1.000000 0.682343 0.384308
0.862732 0.549011 0.360779
0.592163 0.388245 0.274506
0.839203 0.721558 0.600006
1.000000 0.713715 0.262756
1.000000 0.694122 0.239227
1.000000 0.643127 0.215698
1.000000 0.643127 0.215698
1.000000 0.600006 0.231384
1.000000 0.580383 0.223541
0.952942 0.454895 0.160797
0.713715 0.360779 0.164703
0.647064 0.427460 0.262756
1.000000 0.639221 0.168640
1.000000 0.615692 0.152954
1.000000 0.580383 0.121582
1.000000 0.576477 0.141174
1.000000 0.584320 0.137268
1.000000 0.533325 0.074524
1.000000 0.439209 0.000000
1.000000 0.341187 0.000000
0.854889 0.243134 0.000000
1.000000 1.000000 0.466675
1.000000 0.988220 0.419617
1.000000 0.956848 0.380402
1.000000 0.905884 0.313721
1.000000 0.870575 0.282349
1.000000 0.835297 0.235291
1.000000 0.807831 0.145111
1.000000 0.792145 0.137268
1.000000 0.776459 0.101959
0.866669 0.678436 0.603912
0.792145 0.647064 0.568634
0.756866 0.592163 0.537262
0.564697 0.513733 0.454895
0.066681 0.101959 0.058838
0.058838 0.050995 0.027466
0.062744 0.050995 0.043152
0.054901 0.058838 0.039215
0.349030 0.517639 0.607849
0.921570 0.733337 0.611755
0.905884 0.705872 0.572540
0.890198 0.694122 0.580383
0.878418 0.662750 0.545105
0.521576 0.494110 0.494110
0.509796 0.498047 0.494110
0.392151 0.399994 0.419617
0.368622 0.419617 0.498047
0.415680 0.509796 0.588226
0.996063 0.764709 0.592163
1.000000 0.768616 0.592163
0.956848 0.713715 0.592163
0.870575 0.701965 0.568634
0.498047 0.486267 0.490204
0.407837 0.399994 0.407837
0.447052 0.423523 0.415680
0.258820 0.290192 0.349030
0.403931 0.517639 0.596069
1.000000 0.799988 0.521576
1.000000 0.756866 0.521576
0.850983 0.686279 0.529419
0.654907 0.560791 0.474518
0.545105 0.478424 0.419617
0.474518 0.415680 0.372559
0.486267 0.423523 0.380402
0.172546 0.184326 0.176483
0.474518 0.556854 0.600006
1.000000 0.807831 0.478424
1.000000 0.792145 0.466675
1.000000 0.772552 0.411774
1.000000 0.729401 0.411774
0.705872 0.498047 0.376465
0.701965 0.498047 0.399994
0.627441 0.474518 0.345093
0.478424 0.396088 0.321564
0.713715 0.705872 0.670593
1.000000 0.796082 0.423523
1.000000 0.776459 0.396088
1.000000 0.737244 0.349030
1.000000 0.717651 0.360779
1.000000 0.709808 0.325500
1.000000 0.670593 0.337250
0.890198 0.580383 0.317657
0.600006 0.384308 0.286285
0.827454 0.717651 0.611755
1.000000 0.725494 0.274506
1.000000 0.690186 0.239227
1.000000 0.639221 0.207855
1.000000 0.631378 0.215698
1.000000 0.576477 0.203918
1.000000 0.568634 0.200012
0.964691 0.462738 0.168640
0.717651 0.349030 0.164703
0.662750 0.423523 0.262756
1.000000 0.639221 0.172546
1.000000 0.607849 0.152954
1.000000 0.584320 0.117645
1.000000 0.584320 0.137268
1.000000 0.588226 0.137268
1.000000 0.537262 0.086273
1.000000 0.462738 0.027466
1.000000 0.337250 0.000000
0.854889 0.239227 0.000000
1.000000 0.996063 0.498047
1.000000 0.984314 0.431366
1.000000 0.937256 0.349030
1.000000 0.886261 0.266663
1.000000 0.866669 0.278442
1.000000 0.831360 0.243134
1.000000 0.796082 0.172546
1.000000 0.772552 0.207855
1.000000 0.772552 0.054901
