fun-test/static/cube/黄色皮肤.cube
#Created by: Adobe Photoshop Export Color Lookup Plugin
TITLE "5c8a1e03615c1.jpg"
#LUT size
LUT_3D_SIZE 5
#data domain
DOMAIN_MIN 0.0 0.0 0.0
DOMAIN_MAX 1.0 1.0 1.0
#LUT data points
0.811768 0.639221 0.572540
0.764709 0.572540 0.505890
0.117645 0.109802 0.066681
0.070587 0.050995 0.035309
0.462738 0.545105 0.631378
0.972534 0.752930 0.576477
0.972534 0.721558 0.576477
0.505890 0.490204 0.509796
0.376465 0.368622 0.352936
0.439209 0.576477 0.615692
1.000000 0.799988 0.486267
1.000000 0.764709 0.470581
0.600006 0.498047 0.411774
0.662750 0.517639 0.407837
0.674500 0.674500 0.643127
1.000000 0.745087 0.309814
1.000000 0.698029 0.274506
1.000000 0.635284 0.250977
0.933319 0.490204 0.215698
0.682343 0.474518 0.325500
1.000000 0.917633 0.356873
1.000000 0.882355 0.278442
1.000000 0.799988 0.215698
1.000000 0.776459 0.203918
1.000000 0.564697 0.007843
0.819611 0.650970 0.572540
0.780396 0.600006 0.533325
0.101959 0.098053 0.047058
0.078430 0.039215 0.035309
0.396088 0.529419 0.631378
0.976471 0.756866 0.588226
0.976471 0.737244 0.576477
0.517639 0.498047 0.505890
0.454895 0.454895 0.407837
0.423523 0.541168 0.576477
1.000000 0.799988 0.478424
1.000000 0.752930 0.470581
0.666656 0.482361 0.403931
0.674500 0.474518 0.364716
0.690186 0.674500 0.650970
1.000000 0.749023 0.309814
1.000000 0.674500 0.247070
1.000000 0.627441 0.247070
0.952942 0.470581 0.215698
0.709808 0.482361 0.337250
1.000000 0.945099 0.403931
1.000000 0.909790 0.313721
1.000000 0.835297 0.243134
1.000000 0.819611 0.239227
1.000000 0.647064 0.117645
0.819611 0.654907 0.572540
0.799988 0.611755 0.556854
0.145111 0.133331 0.070587
0.113739 0.054901 0.031372
0.435303 0.545105 0.631378
0.968628 0.756866 0.603912
0.980377 0.729401 0.549011
0.560791 0.501953 0.482361
0.415680 0.415680 0.356873
0.427460 0.564697 0.592163
1.000000 0.807831 0.486267
1.000000 0.760773 0.466675
0.705872 0.509796 0.419617
0.650970 0.486267 0.392151
0.690186 0.698029 0.666656
1.000000 0.729401 0.290192
1.000000 0.662750 0.243134
1.000000 0.619598 0.231384
0.956848 0.470581 0.180389
0.670593 0.454895 0.294128
1.000000 0.972534 0.399994
1.000000 0.937256 0.356873
1.000000 0.854889 0.270599
1.000000 0.827454 0.227448
1.000000 0.709808 0.000000
0.850983 0.654907 0.576477
0.792145 0.600006 0.525482
0.101959 0.129425 0.082367
0.066681 0.050995 0.039215
0.384308 0.525482 0.603912
0.976471 0.756866 0.588226
0.968628 0.717651 0.525482
0.541168 0.482361 0.466675
0.399994 0.415680 0.352936
0.403931 0.537262 0.564697
1.000000 0.811768 0.482361
1.000000 0.768616 0.427460
0.725494 0.541168 0.403931
0.670593 0.490204 0.368622
0.713715 0.701965 0.666656
1.000000 0.725494 0.282349
1.000000 0.650970 0.231384
1.000000 0.607849 0.211761
0.945099 0.450989 0.156860
0.654907 0.435303 0.270599
1.000000 1.000000 0.474518
1.000000 0.956848 0.388245
1.000000 0.874512 0.290192
1.000000 0.799988 0.239227
1.000000 0.776459 0.074524
0.866669 0.678436 0.603912
0.756866 0.592163 0.537262
0.066681 0.101959 0.058838
0.062744 0.050995 0.043152
0.349030 0.517639 0.607849
0.996063 0.764709 0.592163
0.956848 0.713715 0.592163
0.498047 0.486267 0.490204
0.447052 0.423523 0.415680
0.403931 0.517639 0.596069
1.000000 0.807831 0.478424
1.000000 0.772552 0.411774
0.705872 0.498047 0.376465
0.627441 0.474518 0.345093
0.713715 0.705872 0.670593
1.000000 0.725494 0.274506
1.000000 0.639221 0.207855
1.000000 0.576477 0.203918
0.964691 0.462738 0.168640
0.662750 0.423523 0.262756
1.000000 0.996063 0.498047
1.000000 0.937256 0.349030
1.000000 0.866669 0.278442
1.000000 0.796082 0.172546
1.000000 0.772552 0.054901
