fun-test/static/cube/黄色皮肤.cube
#Created by: Adobe Photoshop Export Color Lookup Plugin
TITLE "5c8a1e03615c1.jpg"
#LUT size
LUT_3D_SIZE 33
#data domain
DOMAIN_MIN 0.0 0.0 0.0
DOMAIN_MAX 1.0 1.0 1.0
#LUT data points
0.811768 0.639221 0.572540
0.811768 0.639221 0.572540
0.796082 0.647064 0.572540
0.792145 0.639221 0.572540
0.768616 0.643127 0.564697
0.752930 0.627441 0.549011
0.760773 0.572540 0.537262
0.772552 0.584320 0.549011
0.764709 0.572540 0.505890
0.776459 0.584320 0.521576
0.788239 0.588226 0.501953
0.749023 0.549011 0.462738
0.674500 0.529419 0.439209
0.592163 0.447052 0.372559
0.380402 0.337250 0.262756
0.219604 0.184326 0.117645
0.117645 0.109802 0.066681
0.086273 0.078430 0.047058
0.066681 0.062744 0.043152
0.066681 0.066681 0.047058
0.062744 0.054901 0.035309
0.062744 0.062744 0.039215
0.062744 0.047058 0.023529
0.070587 0.058838 0.035309
0.070587 0.050995 0.035309
0.074524 0.050995 0.039215
0.082367 0.054901 0.047058
0.094116 0.062744 0.054901
0.113739 0.054901 0.031372
0.117645 0.058838 0.039215
0.176483 0.254913 0.321564
0.360779 0.470581 0.580383
0.462738 0.545105 0.631378
0.850983 0.670593 0.592163
0.839203 0.650970 0.572540
0.827454 0.662750 0.584320
0.827454 0.662750 0.580383
0.796082 0.639221 0.556854
0.788239 0.627441 0.545105
0.803925 0.623535 0.545105
0.792145 0.611755 0.533325
0.784302 0.607849 0.545105
0.772552 0.596069 0.533325
0.717651 0.580383 0.529419
0.686279 0.552948 0.498047
0.568634 0.509796 0.450989
0.490204 0.439209 0.380402
0.309814 0.325500 0.278442
0.168640 0.184326 0.141174
0.082367 0.105896 0.074524
0.062744 0.082367 0.054901
0.050995 0.058838 0.039215
0.043152 0.058838 0.035309
0.054901 0.066681 0.043152
0.047058 0.050995 0.031372
0.050995 0.054901 0.027466
0.050995 0.058838 0.027466
0.062744 0.054901 0.039215
0.058838 0.054901 0.039215
0.070587 0.050995 0.047058
0.074524 0.054901 0.050995
0.058838 0.066681 0.039215
0.062744 0.066681 0.039215
0.168640 0.227448 0.309814
0.376465 0.450989 0.584320
0.372559 0.529419 0.607849
0.854889 0.690186 0.584320
0.850983 0.682343 0.576477
0.839203 0.670593 0.560791
0.835297 0.666656 0.556854
0.835297 0.666656 0.552948
0.819611 0.650970 0.537262
0.815674 0.627441 0.552948
0.815674 0.623535 0.541168
0.819611 0.615692 0.549011
0.819611 0.619598 0.537262
0.796082 0.592163 0.521576
0.776459 0.568634 0.498047
0.674500 0.537262 0.462738
0.607849 0.478424 0.399994
0.478424 0.431366 0.349030
0.329407 0.294128 0.219604
0.156860 0.152954 0.094116
0.101959 0.094116 0.047058
0.090210 0.082367 0.039215
0.082367 0.074524 0.031372
0.082367 0.054901 0.023529
0.086273 0.058838 0.027466
0.078430 0.054901 0.031372
0.082367 0.050995 0.035309
0.098053 0.050995 0.039215
0.105896 0.054901 0.043152
0.121582 0.054901 0.054901
0.121582 0.054901 0.047058
0.094116 0.062744 0.031372
0.094116 0.058838 0.027466
0.184326 0.203918 0.294128
0.396088 0.435303 0.576477
0.372559 0.513733 0.600006
0.862732 0.686279 0.584320
0.850983 0.674500 0.568634
0.862732 0.670593 0.568634
0.858826 0.662750 0.560791
0.862732 0.666656 0.564697
0.854889 0.654907 0.549011
0.839203 0.631378 0.541168
0.839203 0.627441 0.537262
0.866669 0.639221 0.541168
0.854889 0.631378 0.537262
0.843140 0.615692 0.521576
0.843140 0.615692 0.521576
0.772552 0.592163 0.501953
0.698029 0.521576 0.427460
0.474518 0.411774 0.337250
0.423523 0.368622 0.298035
0.294128 0.294128 0.231384
0.152954 0.145111 0.098053
0.070587 0.078430 0.043152
0.066681 0.074524 0.039215
0.062744 0.062744 0.027466
0.062744 0.066681 0.031372
0.058838 0.062744 0.039215
0.062744 0.066681 0.047058
0.074524 0.058838 0.035309
0.070587 0.054901 0.031372
0.094116 0.062744 0.039215
0.125488 0.094116 0.066681
0.129425 0.117645 0.066681
0.133331 0.117645 0.070587
0.223541 0.239227 0.321564
0.431366 0.458832 0.584320
0.403931 0.509796 0.592163
0.878418 0.721558 0.611755
0.874512 0.713715 0.603912
0.878418 0.698029 0.592163
0.878418 0.698029 0.592163
0.898041 0.694122 0.596069
0.890198 0.682343 0.584320
0.886261 0.666656 0.584320
0.882355 0.658813 0.580383
0.870575 0.686279 0.568634
0.862732 0.678436 0.556854
0.854889 0.647064 0.529419
0.843140 0.635284 0.513733
0.866669 0.607849 0.525482
0.854889 0.607849 0.521576
0.741180 0.549011 0.482361
0.678436 0.498047 0.427460
0.474518 0.435303 0.360779
0.443146 0.407837 0.337250
0.337250 0.345093 0.282349
0.180389 0.196075 0.137268
0.109802 0.098053 0.062744
0.082367 0.066681 0.035309
0.078430 0.066681 0.043152
0.074524 0.062744 0.039215
0.043152 0.070587 0.039215
0.043152 0.070587 0.043152
0.066681 0.054901 0.047058
0.062744 0.054901 0.039215
0.074524 0.039215 0.019623
0.066681 0.027466 0.015686
0.141174 0.184326 0.266663
0.392151 0.466675 0.596069
0.356873 0.529419 0.592163
0.913727 0.721558 0.596069
0.913727 0.725494 0.603912
0.917633 0.729401 0.603912
0.913727 0.717651 0.592163
0.909790 0.709808 0.580383
0.913727 0.717651 0.588226
0.929413 0.705872 0.572540
0.921570 0.705872 0.572540
0.898041 0.701965 0.592163
0.894104 0.698029 0.580383
0.886261 0.678436 0.580383
0.882355 0.678436 0.568634
0.878418 0.662750 0.541168
0.870575 0.654907 0.533325
0.799988 0.643127 0.560791
0.701965 0.545105 0.466675
0.525482 0.501953 0.501953
0.521576 0.498047 0.494110
0.494110 0.505890 0.525482
0.490204 0.501953 0.525482
0.501953 0.490204 0.486267
0.486267 0.478424 0.482361
0.478424 0.462738 0.447052
0.454895 0.431366 0.419617
0.403931 0.407837 0.423523
0.266663 0.266663 0.282349
0.101959 0.113739 0.121582
0.168640 0.188232 0.192169
0.388245 0.435303 0.513733
0.450989 0.509796 0.592163
0.568634 0.658813 0.658813
0.486267 0.580383 0.576477
0.427460 0.521576 0.600006
0.933319 0.745087 0.615692
0.937256 0.749023 0.619598
0.941162 0.737244 0.607849
0.937256 0.729401 0.600006
0.945099 0.721558 0.584320
0.941162 0.709808 0.568634
0.945099 0.705872 0.568634
0.937256 0.694122 0.556854
0.929413 0.709808 0.564697
0.933319 0.698029 0.556854
0.894104 0.694122 0.564697
0.894104 0.694122 0.564697
0.796082 0.662750 0.584320
0.725494 0.588226 0.505890
0.552948 0.505890 0.478424
0.552948 0.501953 0.482361
0.494110 0.509796 0.517639
0.486267 0.501953 0.513733
0.498047 0.494110 0.509796
0.482361 0.482361 0.498047
0.490204 0.462738 0.466675
0.505890 0.482361 0.482361
0.494110 0.470581 0.494110
0.470581 0.447052 0.470581
0.454895 0.439209 0.388245
0.372559 0.360779 0.317657
0.149017 0.164703 0.164703
0.149017 0.156860 0.160797
0.372559 0.403931 0.505890
0.482361 0.505890 0.627441
0.462738 0.556854 0.623535
0.470581 0.560791 0.631378
0.419617 0.556854 0.580383
0.949005 0.749023 0.596069
0.956848 0.756866 0.600006
0.964691 0.752930 0.596069
0.964691 0.756866 0.603912
0.964691 0.741180 0.596069
0.960785 0.721558 0.568634
0.945099 0.717651 0.580383
0.941162 0.713715 0.572540
0.945099 0.717651 0.572540
0.941162 0.709808 0.564697
0.909790 0.701965 0.572540
0.901947 0.690186 0.564697
0.776459 0.615692 0.541168
0.658813 0.505890 0.419617
0.580383 0.509796 0.486267
0.572540 0.498047 0.478424
0.509796 0.513733 0.521576
0.501953 0.509796 0.517639
0.482361 0.490204 0.498047
0.478424 0.486267 0.494110
0.482361 0.474518 0.470581
0.462738 0.450989 0.447052
0.415680 0.407837 0.447052
0.399994 0.396088 0.423523
0.431366 0.454895 0.384308
0.380402 0.392151 0.341187
0.196075 0.219604 0.211761
0.141174 0.160797 0.160797
0.321564 0.352936 0.423523
0.411774 0.458832 0.545105
0.419617 0.498047 0.568634
0.478424 0.556854 0.631378
0.431366 0.541168 0.596069
0.972534 0.752930 0.576477
0.968628 0.752930 0.588226
0.980377 0.756866 0.580383
0.980377 0.752930 0.580383
0.984314 0.749023 0.572540
0.980377 0.745087 0.560791
0.952942 0.745087 0.564697
0.949005 0.737244 0.556854
0.972534 0.721558 0.576477
0.960785 0.709808 0.552948
0.929413 0.690186 0.576477
0.933319 0.698029 0.584320
0.788239 0.662750 0.568634
0.666656 0.533325 0.447052
0.537262 0.490204 0.462738
0.525482 0.482361 0.443146
0.505890 0.490204 0.509796
0.513733 0.494110 0.509796
0.498047 0.482361 0.501953
0.505890 0.478424 0.501953
0.474518 0.474518 0.490204
0.427460 0.427460 0.443146
0.431366 0.427460 0.443146
0.399994 0.396088 0.411774
0.376465 0.368622 0.352936
0.286285 0.278442 0.254913
0.149017 0.160797 0.149017
0.125488 0.137268 0.129425
0.298035 0.341187 0.384308
0.403931 0.458832 0.513733
0.462738 0.549011 0.647064
0.517639 0.600006 0.698029
0.439209 0.576477 0.615692
0.992157 0.756866 0.580383
1.000000 0.780396 0.611755
1.000000 0.768616 0.560791
1.000000 0.776459 0.568634
1.000000 0.772552 0.603912
1.000000 0.756866 0.572540
0.968628 0.745087 0.576477
0.949005 0.717651 0.537262
0.941162 0.698029 0.556854
0.937256 0.694122 0.552948
0.929413 0.705872 0.549011
0.941162 0.729401 0.576477
0.882355 0.721558 0.592163
0.811768 0.639221 0.505890
0.611755 0.498047 0.490204
0.592163 0.482361 0.474518
0.490204 0.474518 0.478424
0.494110 0.478424 0.482361
0.501953 0.482361 0.447052
0.450989 0.435303 0.403931
0.415680 0.407837 0.419617
0.435303 0.427460 0.431366
0.407837 0.399994 0.411774
0.407837 0.399994 0.415680
0.423523 0.403931 0.396088
0.376465 0.360779 0.349030
0.254913 0.270599 0.231384
0.133331 0.141174 0.113739
0.235291 0.262756 0.321564
0.443146 0.474518 0.564697
0.482361 0.576477 0.615692
0.478424 0.572540 0.623535
0.427460 0.541168 0.619598
1.000000 0.780396 0.549011
1.000000 0.772552 0.549011
1.000000 0.776459 0.564697
1.000000 0.772552 0.556854
1.000000 0.760773 0.545105
1.000000 0.741180 0.517639
0.945099 0.717651 0.549011
0.937256 0.701965 0.533325
0.917633 0.709808 0.529419
0.921570 0.713715 0.537262
0.937256 0.690186 0.545105
0.933319 0.682343 0.537262
0.909790 0.690186 0.505890
0.886261 0.670593 0.482361
0.623535 0.509796 0.501953
0.600006 0.486267 0.478424
0.552948 0.513733 0.454895
0.501953 0.470581 0.415680
0.466675 0.403931 0.392151
0.462738 0.403931 0.392151
0.396088 0.396088 0.396088
0.403931 0.403931 0.403931
0.399994 0.392151 0.396088
0.403931 0.396088 0.407837
0.384308 0.368622 0.333344
0.384308 0.380402 0.341187
0.298035 0.309814 0.282349
0.168640 0.180389 0.156860
0.200012 0.231384 0.262756
0.407837 0.443146 0.486267
0.423523 0.505890 0.592163
0.431366 0.513733 0.600006
0.419617 0.533325 0.564697
1.000000 0.788239 0.549011
1.000000 0.784302 0.545105
1.000000 0.780396 0.537262
1.000000 0.772552 0.525482
1.000000 0.756866 0.509796
1.000000 0.741180 0.490204
0.980377 0.737244 0.529419
0.984314 0.729401 0.517639
0.968628 0.713715 0.552948
0.960785 0.701965 0.533325
0.956848 0.690186 0.513733
0.972534 0.698029 0.533325
0.862732 0.682343 0.533325
0.772552 0.584320 0.423523
0.576477 0.525482 0.478424
0.560791 0.509796 0.466675
0.584320 0.501953 0.501953
0.560791 0.494110 0.498047
0.552948 0.443146 0.427460
0.505890 0.403931 0.388245
0.431366 0.411774 0.396088
0.435303 0.419617 0.399994
0.415680 0.392151 0.392151
0.411774 0.388245 0.388245
0.427460 0.396088 0.360779
0.431366 0.396088 0.360779
0.305878 0.305878 0.274506
0.164703 0.164703 0.141174
0.184326 0.207855 0.235291
0.392151 0.423523 0.458832
0.411774 0.490204 0.564697
0.423523 0.498047 0.576477
0.419617 0.533325 0.564697
1.000000 0.796082 0.552948
1.000000 0.788239 0.537262
1.000000 0.776459 0.521576
1.000000 0.760773 0.494110
1.000000 0.756866 0.509796
1.000000 0.760773 0.509796
1.000000 0.741180 0.533325
1.000000 0.729401 0.513733
0.968628 0.741180 0.509796
0.968628 0.737244 0.509796
0.862732 0.709808 0.541168
0.772552 0.623535 0.450989
0.639221 0.537262 0.474518
0.639221 0.537262 0.474518
0.639221 0.521576 0.513733
0.615692 0.517639 0.509796
0.607849 0.521576 0.466675
0.564697 0.482361 0.431366
0.486267 0.435303 0.376465
0.458832 0.403931 0.352936
0.447052 0.411774 0.388245
0.470581 0.423523 0.415680
0.462738 0.407837 0.376465
0.454895 0.399994 0.380402
0.454895 0.423523 0.360779
0.435303 0.411774 0.349030
0.392151 0.376465 0.337250
0.258820 0.250977 0.215698
0.184326 0.200012 0.219604
0.364716 0.380402 0.403931
0.458832 0.513733 0.580383
0.486267 0.541168 0.619598
0.478424 0.564697 0.584320
1.000000 0.796082 0.517639
1.000000 0.792145 0.501953
1.000000 0.776459 0.525482
1.000000 0.772552 0.517639
1.000000 0.760773 0.521576
1.000000 0.741180 0.509796
1.000000 0.749023 0.521576
1.000000 0.741180 0.513733
0.854889 0.694122 0.529419
0.764709 0.588226 0.419617
0.647064 0.560791 0.474518
0.650970 0.568634 0.478424
0.662750 0.568634 0.482361
0.654907 0.564697 0.474518
0.678436 0.556854 0.470581
0.670593 0.545105 0.458832
0.545105 0.478424 0.415680
0.482361 0.419617 0.368622
0.462738 0.419617 0.384308
0.466675 0.427460 0.388245
0.474518 0.411774 0.372559
0.478424 0.419617 0.368622
0.470581 0.403931 0.364716
0.474518 0.403931 0.368622
0.486267 0.423523 0.380402
0.486267 0.415680 0.376465
0.427460 0.384308 0.360779
0.262756 0.227448 0.211761
0.176483 0.188232 0.180389
0.368622 0.388245 0.380402
0.462738 0.509796 0.537262
0.490204 0.541168 0.568634
0.494110 0.572540 0.615692
1.000000 0.784302 0.529419
1.000000 0.768616 0.505890
1.000000 0.764709 0.533325
1.000000 0.752930 0.509796
1.000000 0.745087 0.482361
1.000000 0.745087 0.482361
1.000000 0.752930 0.509796
1.000000 0.745087 0.501953
1.000000 0.760773 0.501953
1.000000 0.729401 0.466675
0.819611 0.654907 0.525482
0.768616 0.588226 0.458832
0.729401 0.564697 0.482361
0.725494 0.560791 0.474518
0.729401 0.584320 0.447052
0.721558 0.568634 0.439209
0.596069 0.498047 0.439209
0.525482 0.435303 0.380402
0.556854 0.419617 0.368622
0.564697 0.435303 0.384308
0.521576 0.454895 0.396088
0.505890 0.443146 0.388245
0.474518 0.415680 0.356873
0.498047 0.431366 0.372559
0.494110 0.427460 0.368622
0.509796 0.439209 0.380402
0.494110 0.431366 0.380402
0.415680 0.364716 0.317657
0.372559 0.356873 0.325500
0.431366 0.411774 0.380402
0.521576 0.549011 0.541168
0.611755 0.635284 0.627441
0.584320 0.627441 0.635284
1.000000 0.784302 0.486267
1.000000 0.776459 0.470581
1.000000 0.764709 0.494110
1.000000 0.749023 0.474518
1.000000 0.749023 0.490204
1.000000 0.749023 0.498047
1.000000 0.752930 0.462738
1.000000 0.756866 0.462738
1.000000 0.737244 0.419617
1.000000 0.745087 0.435303
1.000000 0.721558 0.427460
1.000000 0.729401 0.447052
0.952942 0.745087 0.556854
0.831360 0.592163 0.376465
0.584320 0.466675 0.376465
0.584320 0.466675 0.376465
0.576477 0.462738 0.380402
0.572540 0.458832 0.384308
0.584320 0.454895 0.376465
0.584320 0.458832 0.376465
0.568634 0.447052 0.388245
0.568634 0.447052 0.388245
0.568634 0.447052 0.380402
0.552948 0.435303 0.368622
0.552948 0.431366 0.364716
0.533325 0.419617 0.352936
0.498047 0.392151 0.349030
0.466675 0.368622 0.317657
0.435303 0.380402 0.337250
0.439209 0.384308 0.341187
0.545105 0.549011 0.521576
0.654907 0.643127 0.619598
0.639221 0.682343 0.666656
1.000000 0.799988 0.486267
1.000000 0.792145 0.462738
1.000000 0.784302 0.474518
1.000000 0.768616 0.435303
1.000000 0.764709 0.439209
1.000000 0.776459 0.462738
1.000000 0.764709 0.435303
1.000000 0.760773 0.435303
1.000000 0.764709 0.470581
1.000000 0.768616 0.474518
1.000000 0.733337 0.423523
1.000000 0.729401 0.419617
1.000000 0.752930 0.517639
1.000000 0.690186 0.427460
0.709808 0.556854 0.411774
0.678436 0.525482 0.384308
0.600006 0.498047 0.411774
0.592163 0.490204 0.403931
0.650970 0.498047 0.380402
0.654907 0.505890 0.388245
0.635284 0.505890 0.399994
0.650970 0.521576 0.415680
0.635284 0.494110 0.384308
0.690186 0.541168 0.427460
0.662750 0.517639 0.407837
0.600006 0.462738 0.360779
0.572540 0.454895 0.356873
0.529419 0.423523 0.329407
0.439209 0.380402 0.313721
0.423523 0.364716 0.301971
0.533325 0.501953 0.450989
0.690186 0.650970 0.603912
0.674500 0.674500 0.643127
1.000000 0.815674 0.490204
1.000000 0.807831 0.474518
1.000000 0.796082 0.458832
1.000000 0.784302 0.443146
1.000000 0.780396 0.443146
1.000000 0.780396 0.447052
1.000000 0.799988 0.439209
1.000000 0.784302 0.403931
1.000000 0.752930 0.450989
1.000000 0.749023 0.447052
1.000000 0.745087 0.399994
1.000000 0.745087 0.399994
1.000000 0.745087 0.431366
1.000000 0.709808 0.368622
0.968628 0.686279 0.494110
0.874512 0.560791 0.352936
0.701965 0.505890 0.376465
0.721558 0.525482 0.384308
0.690186 0.537262 0.380402
0.678436 0.529419 0.372559
0.686279 0.501953 0.419617
0.670593 0.486267 0.407837
0.678436 0.505890 0.376465
0.678436 0.505890 0.376465
0.666656 0.478424 0.356873
0.658813 0.470581 0.349030
0.650970 0.470581 0.364716
0.576477 0.415680 0.313721
0.478424 0.372559 0.301971
0.498047 0.388245 0.313721
0.580383 0.525482 0.466675
0.713715 0.654907 0.600006
0.721558 0.709808 0.670593
1.000000 0.807831 0.474518
1.000000 0.807831 0.470581
1.000000 0.807831 0.474518
1.000000 0.803925 0.466675
1.000000 0.788239 0.447052
1.000000 0.788239 0.450989
1.000000 0.776459 0.435303
1.000000 0.772552 0.427460
1.000000 0.772552 0.423523
1.000000 0.772552 0.415680
1.000000 0.752930 0.415680
1.000000 0.745087 0.392151
1.000000 0.745087 0.458832
1.000000 0.749023 0.462738
1.000000 0.741180 0.435303
1.000000 0.654907 0.298035
0.768616 0.545105 0.356873
0.760773 0.537262 0.352936
0.737244 0.517639 0.411774
0.701965 0.486267 0.384308
0.709808 0.513733 0.372559
0.717651 0.517639 0.380402
0.749023 0.545105 0.384308
0.725494 0.521576 0.364716
0.709808 0.509796 0.364716
0.662750 0.470581 0.329407
0.596069 0.427460 0.317657
0.576477 0.423523 0.309814
0.513733 0.396088 0.321564
0.462738 0.364716 0.290192
0.560791 0.474518 0.415680
0.752930 0.658813 0.603912
0.772552 0.725494 0.670593
1.000000 0.811768 0.462738
1.000000 0.803925 0.447052
1.000000 0.799988 0.439209
1.000000 0.799988 0.447052
1.000000 0.796082 0.447052
1.000000 0.792145 0.439209
1.000000 0.784302 0.423523
1.000000 0.780396 0.415680
1.000000 0.776459 0.419617
1.000000 0.768616 0.411774
1.000000 0.760773 0.411774
1.000000 0.752930 0.399994
1.000000 0.745087 0.396088
1.000000 0.741180 0.396088
1.000000 0.745087 0.427460
1.000000 0.717651 0.396088
1.000000 0.717651 0.427460
1.000000 0.694122 0.399994
0.874512 0.615692 0.376465
0.823517 0.560791 0.325500
0.784302 0.560791 0.384308
0.788239 0.564697 0.388245
0.796082 0.545105 0.368622
0.788239 0.537262 0.360779
0.792145 0.541168 0.376465
0.776459 0.529419 0.360779
0.682343 0.458832 0.329407
0.623535 0.419617 0.282349
0.541168 0.384308 0.286285
0.509796 0.364716 0.266663
0.541168 0.431366 0.341187
0.756866 0.623535 0.533325
0.815674 0.737244 0.666656
1.000000 0.803925 0.443146
1.000000 0.807831 0.450989
1.000000 0.796082 0.439209
1.000000 0.792145 0.427460
1.000000 0.792145 0.431366
1.000000 0.776459 0.403931
1.000000 0.768616 0.388245
1.000000 0.764709 0.380402
1.000000 0.760773 0.403931
1.000000 0.749023 0.388245
1.000000 0.741180 0.399994
1.000000 0.737244 0.396088
1.000000 0.729401 0.384308
1.000000 0.733337 0.388245
1.000000 0.721558 0.352936
1.000000 0.713715 0.345093
1.000000 0.717651 0.384308
1.000000 0.717651 0.376465
1.000000 0.717651 0.431366
1.000000 0.647064 0.333344
0.878418 0.584320 0.341187
0.874512 0.572540 0.329407
0.858826 0.556854 0.352936
0.850983 0.549011 0.345093
0.827454 0.549011 0.356873
0.780396 0.505890 0.317657
0.670593 0.435303 0.290192
0.615692 0.399994 0.258820
0.556854 0.388245 0.278442
0.541168 0.376465 0.266663
0.513733 0.388245 0.290192
0.745087 0.584320 0.470581
0.819611 0.713715 0.607849
1.000000 0.796082 0.423523
1.000000 0.788239 0.415680
1.000000 0.784302 0.411774
1.000000 0.780396 0.403931
1.000000 0.776459 0.396088
1.000000 0.776459 0.396088
1.000000 0.768616 0.388245
1.000000 0.760773 0.372559
1.000000 0.737244 0.352936
1.000000 0.729401 0.329407
1.000000 0.717651 0.329407
1.000000 0.713715 0.329407
1.000000 0.713715 0.356873
1.000000 0.729401 0.376465
1.000000 0.729401 0.376465
1.000000 0.725494 0.368622
1.000000 0.709808 0.329407
1.000000 0.698029 0.313721
1.000000 0.705872 0.349030
1.000000 0.701965 0.349030
1.000000 0.666656 0.345093
1.000000 0.584320 0.239227
0.905884 0.568634 0.352936
0.874512 0.537262 0.321564
0.890198 0.568634 0.309814
0.890198 0.572540 0.313721
0.776459 0.498047 0.294128
0.694122 0.431366 0.231384
0.556854 0.364716 0.266663
0.478424 0.309814 0.215698
0.349030 0.239227 0.188232
0.603912 0.450989 0.380402
0.823517 0.713715 0.607849
1.000000 0.780396 0.392151
1.000000 0.776459 0.384308
1.000000 0.764709 0.368622
1.000000 0.764709 0.368622
1.000000 0.756866 0.368622
1.000000 0.752930 0.356873
1.000000 0.733337 0.333344
1.000000 0.729401 0.329407
1.000000 0.713715 0.313721
1.000000 0.713715 0.313721
1.000000 0.717651 0.325500
1.000000 0.717651 0.325500
1.000000 0.713715 0.329407
1.000000 0.709808 0.321564
1.000000 0.694122 0.305878
1.000000 0.690186 0.298035
1.000000 0.698029 0.325500
1.000000 0.694122 0.317657
1.000000 0.686279 0.329407
1.000000 0.690186 0.333344
1.000000 0.666656 0.317657
1.000000 0.596069 0.223541
0.929413 0.560791 0.274506
0.905884 0.549011 0.258820
0.901947 0.533325 0.290192
0.878418 0.525482 0.274506
0.815674 0.482361 0.282349
0.749023 0.427460 0.235291
0.639221 0.396088 0.239227
0.592163 0.368622 0.215698
0.482361 0.356873 0.227448
0.623535 0.450989 0.313721
0.776459 0.650970 0.505890
1.000000 0.760773 0.349030
1.000000 0.749023 0.325500
1.000000 0.729401 0.321564
1.000000 0.721558 0.301971
1.000000 0.717651 0.309814
1.000000 0.721558 0.309814
1.000000 0.701965 0.305878
1.000000 0.701965 0.305878
1.000000 0.705872 0.313721
1.000000 0.701965 0.309814
1.000000 0.690186 0.290192
1.000000 0.694122 0.294128
1.000000 0.698029 0.290192
1.000000 0.682343 0.278442
1.000000 0.674500 0.278442
1.000000 0.674500 0.274506
1.000000 0.662750 0.278442
1.000000 0.662750 0.274506
1.000000 0.643127 0.282349
1.000000 0.619598 0.250977
1.000000 0.619598 0.270599
1.000000 0.615692 0.270599
1.000000 0.576477 0.278442
0.972534 0.529419 0.223541
0.925476 0.517639 0.262756
0.917633 0.509796 0.254913
0.788239 0.458832 0.250977
0.721558 0.396088 0.200012
0.678436 0.384308 0.180389
0.635284 0.356873 0.156860
0.286285 0.207855 0.156860
0.305878 0.223541 0.172546
0.682343 0.537262 0.403931
1.000000 0.745087 0.309814
1.000000 0.749023 0.309814
1.000000 0.733337 0.305878
1.000000 0.729401 0.301971
1.000000 0.717651 0.294128
1.000000 0.705872 0.274506
1.000000 0.705872 0.282349
1.000000 0.701965 0.270599
1.000000 0.698029 0.274506
1.000000 0.678436 0.247070
1.000000 0.658813 0.239227
1.000000 0.658813 0.239227
1.000000 0.654907 0.247070
1.000000 0.666656 0.254913
1.000000 0.631378 0.219604
1.000000 0.635284 0.227448
1.000000 0.635284 0.250977
1.000000 0.619598 0.223541
1.000000 0.607849 0.223541
1.000000 0.596069 0.215698
1.000000 0.592163 0.223541
1.000000 0.576477 0.203918
0.996063 0.525482 0.231384
0.949005 0.474518 0.192169
0.933319 0.490204 0.215698
0.929413 0.474518 0.207855
0.796082 0.411774 0.184326
0.752930 0.384308 0.160797
0.686279 0.376465 0.200012
0.639221 0.349030 0.172546
0.584320 0.349030 0.207855
0.498047 0.305878 0.156860
0.682343 0.474518 0.325500
1.000000 0.725494 0.278442
1.000000 0.717651 0.270599
1.000000 0.713715 0.266663
1.000000 0.709808 0.262756
1.000000 0.698029 0.247070
1.000000 0.682343 0.223541
1.000000 0.662750 0.243134
1.000000 0.650970 0.239227
1.000000 0.643127 0.211761
1.000000 0.650970 0.219604
1.000000 0.650970 0.223541
1.000000 0.643127 0.219604
1.000000 0.627441 0.211761
1.000000 0.619598 0.203918
1.000000 0.607849 0.219604
1.000000 0.588226 0.184326
1.000000 0.568634 0.196075
1.000000 0.568634 0.203918
1.000000 0.568634 0.207855
1.000000 0.560791 0.200012
1.000000 0.556854 0.192169
1.000000 0.549011 0.184326
1.000000 0.486267 0.152954
0.984314 0.454895 0.117645
0.949005 0.435303 0.133331
0.945099 0.431366 0.125488
0.870575 0.403931 0.160797
0.827454 0.376465 0.129425
0.737244 0.352936 0.164703
0.701965 0.341187 0.156860
0.603912 0.329407 0.164703
0.549011 0.294128 0.129425
0.674500 0.423523 0.266663
1.000000 0.705872 0.243134
1.000000 0.701965 0.235291
1.000000 0.698029 0.239227
1.000000 0.694122 0.227448
1.000000 0.678436 0.211761
1.000000 0.670593 0.200012
1.000000 0.647064 0.203918
1.000000 0.650970 0.207855
1.000000 0.635284 0.200012
1.000000 0.635284 0.203918
1.000000 0.615692 0.188232
1.000000 0.619598 0.200012
1.000000 0.596069 0.176483
1.000000 0.592163 0.172546
1.000000 0.576477 0.180389
1.000000 0.572540 0.176483
1.000000 0.556854 0.164703
1.000000 0.533325 0.141174
1.000000 0.537262 0.156860
1.000000 0.545105 0.164703
1.000000 0.541168 0.176483
1.000000 0.533325 0.160797
1.000000 0.509796 0.152954
1.000000 0.470581 0.094116
